!!!!SEGMENT: pl-cz--iii-743--001-006_zebrowski-marcin-jozef--magnificat-fecit-potentiam.krn
!!!cenid: 17xx:2337
!!!COM: Żebrowski, Marcin Józef
!!!COM-rismID: pe30020322
!!!CDT: 1702-1770/06/29
!!!CNT: Polish
!!!OPR: Magnificat
!!!OTL: Fecit potentiam
!!!OMV: 006
!!!PDT:
!!!AGN:
!!!SMS-siglum: PL-CZ
!!!SMS-shelfmark: III-743
!!!SMS-shelfwork: 001-006 M
!!!SMS-variant: Organo PL-CZ III-743:24
!!!SMS-altvar: Organo PL-CZ III-743:28
!!!NIFC-rismSourceID: 300033495
!!!NIFC-islandoraID: pl-cz:25228
!!!URL-pdf-islandora: https://repozytorium.nifc.pl/islandora/object/pl-cz%3A25228/datastream/PDF/view
!!!URL-scan: https://polish.musicsources.pl/pl/lokalizacje/galeria/rekopisy/1473 @EN{Scan on Polish Music Sources Website} @PL{Skany w portalu Dziedzictwo Muzyki Polskiej w otwartym dostępie}
!!!ONB-nifc: UWAGA: części Magnificatu: 1. Magnificat, 2. Et exultavit, 3. Quia respexit, 4. Quia fecit, 5. Et misericordia, 6. Fecit potentiam, 7. Deposuit potentes, 8. Esurientes implevit bonis, 9. Suscepit Israel, 10. Sicut locutus, 11. Gloria patri (razem z Sicut erat i Amen)
!!!OMD: Allegro
!!!AIN: 1 alto 1 bass 1 clrno 1 cor 1 organ 1 soprn 1 tenor 1 viola 2 violn
!!!key: D
**kern	**fba	**dynam	**kern	**dynam	**kern	**dynam	**kern	**dynam	**kern	**text	**kern	**kern	**kern	**kern	**kern	**dynam
*part10	*part10	*part10	*part9	*part9	*part8	*part8	*part7	*part7	*part6	*part6	*part5	*part4	*part3	*part2	*part1	*part1
*staff10	*staff10	*	*staff9	*	*staff8	*	*staff7	*	*staff6	*staff6	*staff5	*staff4	*staff3	*staff2	*staff1	*
*I"Baſso pro Organo.	*	*	*I"Viola Oblige:	*	*I"Violino Secondo.	*	*I"Violino Primo	*	*I"Baſso.	*	*I"Tenore.	*I"Alto.	*I"Canto.	*I"Cornuo Secondo. ex g.	*I"Clarino Solo ex D.	*
*I'org	*	*	*I'vla	*	*I'vl 2	*	*I'vl 1	*	*I'B	*	*I'T	*I'A	*I'S	*I'cor 2 in G	*I'clno in D	*
*Iorgan	*	*	*Iviola	*	*Ivioln	*	*Ivioln	*	*Ibass	*	*Itenor	*Ialto	*Isoprn	*Icor	*Iclrno	*
*ICklav	*	*	*ICstr	*	*ICstr	*	*ICstr	*	*ICvox	*	*ICvox	*ICvox	*ICvox	*ICbras	*ICbras	*
*clefF4	*	*	*clefC3	*	*clefG2	*	*clefG2	*	*clefF4	*	*clefC4	*clefC3	*clefC1	*clefG2	*clefG2	*
*	*	*	*	*	*	*	*	*	*	*	*	*	*	*ITrd3c5	*ITrd-1c-2	*
*k[f#c#]	*	*	*k[f#c#]	*	*k[f#c#]	*	*k[f#c#]	*	*k[f#c#]	*	*k[f#c#]	*k[f#c#]	*k[f#c#]	*k[f#c#]	*k[f#c#]	*
*D:	*	*	*D:	*	*D:	*	*D:	*	*D:	*	*D:	*D:	*D:	*D:	*D:	*
*M4/4	*	*	*M4/4	*	*M4/4	*	*M4/4	*	*M4/4	*	*M4/4	*M4/4	*M4/4	*M4/4	*M4/4	*
*met(c)	*	*	*met(c)	*	*met(c)	*	*met(c)	*	*met(c)	*	*met(c)	*met(c)	*met(c)	*met(c)	*met(c)	*
=1	=1	=1	=1	=1	=1	=1	=1	=1	=1	=1	=1	=1	=1	=1	=1	=1
!	!	!	!	!LO:DY:b:t=pia	!	!LO:DY:b:t=piano	!	!LO:DY:b:t-pia	!LO:TX:b:t=Allegro.	!	!	!	!	!	!LO:TX:b:t=Allegro.	!
!LO:TX:b:t=allo, solo e	!	!LO:DY:b:t=piano.	!LO:TX:a:B:t=Allo.	!	!LO:TX:a:B:t=Allegro	!	!LO:TX:a:B:t=Alló.	!	!LO:TX:a:t=13.	!	!LO:TX:a:t=Fecit Potentia[m]\nBS&colon; C Tacet	!LO:TX:a:t=Fecit Potentiam C Tacet	!LO:TX:a:t=Fecit Potentiam C Tacet	!LO:TX:a:t=Fecit Potentiam tacet.	!LO:TX:t=P:problem=część Fecit potentiam dla instrumentu Clarino Solo ex D. zapisana na karcie głosu Cornuo Primo. ex g	!
8D/	.	p	8A/	p	8f#/	p	8a/	p	00r	.	1ryy	1ryy	1ryy	1ryy	4dd\	.
8r	.	.	8r	.	8r	.	8r	.	.	.	.	.	.	.	.	.
8C#/	6	.	8A/	.	8e/	.	8a/	.	.	.	.	.	.	.	8.aa\L	.
8r	.	.	8r	.	8r	.	8r	.	.	.	.	.	.	.	.	.
.	.	.	.	.	.	.	.	.	.	.	.	.	.	.	16gg\Jk	.
.	.	.	.	.	.	.	.	.	.	.	.	.	.	.	8qqgg/	.
!	!	!LO:DY:b:t=for&colon;	!	!	!	!	!	!	!	!	!	!	!	!	!	!
8D\L	.	f	4A/	.	4f#/	.	4a/	.	.	.	.	.	.	.	8.ff#\L	.
16E\L	.	.	.	.	.	.	.	.	.	.	.	.	.	.	.	.
16F#\JJ	.	.	.	.	.	.	.	.	.	.	.	.	.	.	16ee\Jk	.
16G\LL	.	.	4r	.	4r	.	4r	.	.	.	.	.	.	.	4dd\	.
16A\	.	.	.	.	.	.	.	.	.	.	.	.	.	.	.	.
16B\	.	.	.	.	.	.	.	.	.	.	.	.	.	.	.	.
16c#\JJ	.	.	.	.	.	.	.	.	.	.	.	.	.	.	.	.
=2	=2	=2	=2	=2	=2	=2	=2	=2	=2	=2	=2	=2	=2	=2	=2	=2
!	!	!LO:DY:b:t=pia&colon;	!	!	!	!	!	!	!	!	!	!	!	!	!	!
8D/	.	p	8A/	.	8f#/	.	8a/	.	.	.	1ryy	1ryy	1ryy	1ryy	(16dd\LL	.
.	.	.	.	.	.	.	.	.	.	.	.	.	.	.	16ee\	.
8r	.	.	8r	.	8r	.	8r	.	.	.	.	.	.	.	16ff#\)	.
.	.	.	.	.	.	.	.	.	.	.	.	.	.	.	16gg\JJ	.
8C#/	6	.	8A/	.	8e/	.	8a/	.	.	.	.	.	.	.	8.aa\L	.
8r	.	.	8r	.	8r	.	8r	.	.	.	.	.	.	.	.	.
.	.	.	.	.	.	.	.	.	.	.	.	.	.	.	16gg\Jk	.
!	!	!	!	!	!	!	!	!	!	!	!	!	!	!	!LO:TX:a:t=t.	!
.	.	.	.	.	.	.	.	.	.	.	.	.	.	.	8qqgg/	.
!	!	!LO:DY:b:t=for&colon;	!	!	!	!	!	!	!	!	!	!	!	!	!	!
8D\L	.	f	4A/	.	4f#/	.	4a/	.	.	.	.	.	.	.	8.ff#\L	.
16E\L	.	.	.	.	.	.	.	.	.	.	.	.	.	.	.	.
16F#\JJ	.	.	.	.	.	.	.	.	.	.	.	.	.	.	16ee\Jk	.
16G\LL	.	.	4r	.	4r	.	4r	.	.	.	.	.	.	.	4dd\	.
16A\	.	.	.	.	.	.	.	.	.	.	.	.	.	.	.	.
16B\	.	.	.	.	.	.	.	.	.	.	.	.	.	.	.	.
16c#\JJ	.	.	.	.	.	.	.	.	.	.	.	.	.	.	.	.
=3	=3	=3	=3	=3	=3	=3	=3	=3	=3	=3	=3	=3	=3	=3	=3	=3
!LO:TX:t=P:problem=mixed beam	!	!	!	!LO:DY:b:t=for	!	!LO:DY:b:t=for	!	!LO:DY:b:t=for	!	!	!	!	!	!	!LO:TX:a:t=1.	!
8d\L	.	.	8f#\L	f	16dd|>\LL	f	16dd|>\LL	f	.	.	1ryy	1ryy	1ryy	1ryy	1r	.
.	.	.	.	.	(16dd\	.	(16dd\	.	.	.	.	.	.	.	.	.
8d\	.	.	8f#\	.	16cc#X\	.	16cc#X\	.	.	.	.	.	.	.	.	.
.	.	.	.	.	16dd\JJ)	.	16dd\JJ)	.	.	.	.	.	.	.	.	.
8D/	4 2	.	8f#\	.	16ff#\LL	.	16ff#\LL	.	.	.	.	.	.	.	.	.
.	.	.	.	.	16dd\	.	16dd\	.	.	.	.	.	.	.	.	.
8D/J	.	.	8e\J	.	16bb\	.	16bb\	.	.	.	.	.	.	.	.	.
.	.	.	.	.	16gg#X\JJ	.	16gg#X\JJ	.	.	.	.	.	.	.	.	.
16C#/LL	6	.	16e\LL	.	16aa|>\LL	.	16aa|>\LL	.	.	.	.	.	.	.	.	.
16AA/	.	.	16c#\	.	(16cc#\	.	(16cc#\	.	.	.	.	.	.	.	.	.
16BB/	.	.	16d\	.	16b\	.	16b\	.	.	.	.	.	.	.	.	.
16C#/JJ	.	.	16e\JJ	.	16a\JJ)	.	16a\JJ)	.	.	.	.	.	.	.	.	.
16D\LL	.	.	16f#\LL	.	16a/LL	.	16a/LL	.	.	.	.	.	.	.	.	.
16E\	.	.	16g#X\	.	16a/	.	16a/	.	.	.	.	.	.	.	.	.
16F#\	.	.	16a\	.	16a/	.	16a/	.	.	.	.	.	.	.	.	.
16G#X\JJ	.	.	16b\JJ	.	16a/JJ	.	16a/JJ	.	.	.	.	.	.	.	.	.
!	!	!	!LO:LB:g=original	!	!LO:LB:g=original	!	!	!	!	!	!	!	!	!	!	!
=4	=4	=4	=4	=4	=4	=4	=4	=4	=4	=4	=4	=4	=4	=4	=4	=4
!LO:TX:t=P:problem=mixed beam	!	!	!	!	!	!	!	!	!	!	!	!	!	!	!	!
8A\L	.	.	8a\L	.	4cc#|>\	.	(4ee\	.	.	.	1ryy	1ryy	1ryy	1ryy	(4ee\	.
8A\	.	.	8a\	.	.	.	.	.	.	.	.	.	.	.	.	.
8AA/	6 4	.	8a\	.	(8dd\L	.	8ff#\L)	.	.	.	.	.	.	.	8ff#\L)	.
8AA/J	7nr 3	.	8a\J	.	8ee\J)	.	8ggn|>\J	.	.	.	.	.	.	.	8gg|>\J	.
!LO:LB:g=original	!	!	!	!	!	!	!	!	!	!	!	!	!	!	!	!
=-	=-	=-	=-	=-	=-	=-	=-	=-	=-	=-	=-	=-	=-	=-	=-	=-
8AA/L	6 4	.	8a\L	.	16dd|>\LL	.	16ff#|>\LL	.	.	.	.	.	.	.	4ff#\	.
.	.	.	.	.	(16cc#\	.	(16cc#\	.	.	.	.	.	.	.	.	.
16BB/L	.	.	16d\L	.	16b\	.	16b\	.	.	.	.	.	.	.	.	.
16C#/JJ	.	.	16e\JJ	.	16a\JJ)	.	16a\JJ)	.	.	.	.	.	.	.	.	.
16D\LL	.	.	16f#\LL	.	16a/LL	.	16a/LL	.	.	.	.	.	.	.	4r	.
16E\	.	.	16g#X\	.	16a/	.	16a/	.	.	.	.	.	.	.	.	.
16F#\	.	.	16a\	.	16a/	.	16a/	.	.	.	.	.	.	.	.	.
16G#X\JJ	.	.	16b\JJ	.	16a/JJ	.	16a/JJ	.	.	.	.	.	.	.	.	.
=5	=5	=5	=5	=5	=5	=5	=5	=5	=5	=5	=5	=5	=5	=5	=5	=5
!LO:TX:t=P:problem=mixed beam	!	!	!	!	!	!	!	!	!	!	!	!	!	!	!	!
8A\L	5 3	.	8a\L	.	(4cc#\	.	4ee\	.	00r	.	1ryy	1ryy	1ryy	1ryy	(4ee\	.
8A\	.	.	8a\	.	.	.	.	.	.	.	.	.	.	.	.	.
8AA\	6 4	.	8a\	.	8dd\L)	.	(8ff#\L	.	.	.	.	.	.	.	8ff#\L)	.
8AA\J	7 3	.	8a\J	.	8ee|>\J	.	8gg|>\J)	.	.	.	.	.	.	.	8gg|>\J	.
[4D\	.	.	4a\	.	(16dd\LL	.	(16ff#\LL	.	.	.	.	.	.	.	8ff#\L	.
.	.	.	.	.	16cc#\	.	16ee\	.	.	.	.	.	.	.	.	.
.	.	.	.	.	16dd\)	.	16ff#\)	.	.	.	.	.	.	.	16ff#\L	.
.	.	.	.	.	16ee|>\JJ	.	16gg|>\JJ	.	.	.	.	.	.	.	16gg\JJ	.
16D\LL]	.	.	16f#\LL	.	[4ff#\	.	[4aa\	.	.	.	.	.	.	.	[4aa\	.
16C#\	.	.	16e\	.	.	.	.	.	.	.	.	.	.	.	.	.
16D\	.	.	16f#\	.	.	.	.	.	.	.	.	.	.	.	.	.
16E\JJ	.	.	16g\JJ	.	.	.	.	.	.	.	.	.	.	.	.	.
!	!	!	!	!	!	!	!LO:LB:g=original	!	!	!	!	!	!	!	!	!
=6	=6	=6	=6	=6	=6	=6	=6	=6	=6	=6	=6	=6	=6	=6	=6	=6
4F#|>\	6	.	4a|>\	.	8ff#\L]	.	8aa\L]	.	.	.	1ryy	1ryy	1ryy	1ryy	8aa\L]	.
.	.	.	.	.	16gg\L	.	16bb\L	.	.	.	.	.	.	.	16bb\L	.
.	.	.	.	.	16ff#\JJ	.	16aa\JJ	.	.	.	.	.	.	.	16aa\JJ	.
4G|>\	6	.	4b|>\	.	8ee\L	.	8gg\L	.	.	.	.	.	.	.	8gg\L	.
.	.	.	.	.	8dd\J	.	8ff#\J	.	.	.	.	.	.	.	8ff#\J	.
!	!	!	!	!	!	!	!	!	!	!	!	!	!	!	!LO:LB:g=original	!
=-	=-	=-	=-	=-	=-	=-	=-	=-	=-	=-	=-	=-	=-	=-	=-	=-
.	.	.	.	.	8qqee/	.	8qqgg/	.	.	.	.	.	.	.	8qqgg/	.
!LO:TX:t=P:problem=mixed beam	!	!	!LO:TX:t=P:problem=mixed beam	!	!	!	!	!	!	!	!	!	!	!	!	!
8A\L	6 4	.	8a\L	.	8dd\L	.	8ff#\L	.	.	.	.	.	.	.	8ff#\L	.
8AA/J	5 3	.	8A/J	.	8cc#\J	.	8ee\J	.	.	.	.	.	.	.	8ee\J	.
8C#/L	.	.	4r	.	8r	.	8r	.	.	.	.	.	.	.	4r	.
8AA/J	.	.	.	.	8ee\	.	8ee\	.	.	.	.	.	.	.	.	.
=7	=7	=7	=7	=7	=7	=7	=7	=7	=7	=7	=7	=7	=7	=7	=7	=7
8D\L	.	.	8a\L	.	(32ff#\LLL	.	(32ff#\LLL	.	.	.	1ryy	1ryy	1ryy	1ryy	8r	.
.	.	.	.	.	32ee\JJ)	.	32ee\JJ)	.	.	.	.	.	.	.	.	.
.	.	.	.	.	8.dd\J	.	8.dd\J	.	.	.	.	.	.	.	.	.
8E\	.	.	8g\	.	.	.	.	.	.	.	.	.	.	.	16a/LL	.
.	.	.	.	.	.	.	.	.	.	.	.	.	.	.	16a/JJ	.
8F#\	.	.	8a\	.	(32aa\LLL	.	(32aa\LLL	.	.	.	.	.	.	.	8a/L	.
.	.	.	.	.	32gg\JJ)	.	32gg\JJ)	.	.	.	.	.	.	.	.	.
.	.	.	.	.	8.ff#\J	.	8.ff#\J	.	.	.	.	.	.	.	.	.
8G\J	.	.	8b\J	.	.	.	.	.	.	.	.	.	.	.	8a/J	.
8A\L	.	.	8c#\L	.	16ee\LL	.	16ee\LL	.	.	.	.	.	.	.	4a/	.
.	.	.	.	.	16cc#\JJ	.	16cc#\JJ	.	.	.	.	.	.	.	.	.
.	.	.	.	.	8qqb/	.	8qqb/	.	.	.	.	.	.	.	.	.
8B\	.	.	8d\	.	4a/	.	4a/	.	.	.	.	.	.	.	.	.
8c#\	.	.	8e\	.	.	.	.	.	.	.	.	.	.	.	4r	.
8A\J	.	.	8a\J	.	8cc#\	.	8cc#\	.	.	.	.	.	.	.	.	.
=8	=8	=8	=8	=8	=8	=8	=8	=8	=8	=8	=8	=8	=8	=8	=8	=8
8BB/L	.	.	8f#\L	.	(32dd\LLL	.	(32dd\LLL	.	.	.	1ryy	1ryy	1ryy	1ryy	8r	.
.	.	.	.	.	32cc#\JJ	.	32cc#\JJ	.	.	.	.	.	.	.	.	.
.	.	.	.	.	8.b\J)	.	8.b\J)	.	.	.	.	.	.	.	.	.
8C#/	.	.	8e\	.	.	.	.	.	.	.	.	.	.	.	16f#/LL	.
.	.	.	.	.	.	.	.	.	.	.	.	.	.	.	16f#/JJ	.
8D/	.	.	8f#\	.	(32ff#\LLL	.	(32ff#\LLL	.	.	.	.	.	.	.	8f#/L	.
.	.	.	.	.	32ee\JJ	.	32ee\JJ	.	.	.	.	.	.	.	.	.
.	.	.	.	.	8.dd\J)	.	8.dd\J)	.	.	.	.	.	.	.	.	.
!	!	!	!	!	!LO:LB:g=original	!	!	!	!	!	!	!	!	!	!	!
=-	=-	=-	=-	=-	=-	=-	=-	=-	=-	=-	=-	=-	=-	=-	=-	=-
8E/J	.	.	8g\J	.	.	.	.	.	.	.	.	.	.	.	8f#/J	.
8F#\L	.	.	8A/L	.	(16cc#\LL	.	16cc#\LL	.	.	.	.	.	.	.	4f#/	.
.	.	.	.	.	16a\JJ)	.	16a\JJ	.	.	.	.	.	.	.	.	.
.	.	.	.	.	8qqg/	.	8qqg/	.	.	.	.	.	.	.	.	.
8G\	.	.	8B/	.	4f#/	.	4f#/	.	.	.	.	.	.	.	.	.
8A\	.	.	8c#/	.	.	.	.	.	.	.	.	.	.	.	4r	.
8F#\J	.	.	8f#/J	.	8a/	.	8a/	.	.	.	.	.	.	.	.	.
=9	=9	=9	=9	=9	=9	=9	=9	=9	=9	=9	=9	=9	=9	=9	=9	=9
8GG/L	.	.	8d\L	.	(32b/LLL	.	(32b/LLL	.	00r	.	1ryy	1ryy	1ryy	1ryy	8r	.
.	.	.	.	.	32a/JJ)	.	32a/JJ	.	.	.	.	.	.	.	.	.
.	.	.	.	.	8.g/J	.	8.g/J)	.	.	.	.	.	.	.	.	.
8AA/	.	.	8c#\	.	.	.	.	.	.	.	.	.	.	.	16d/LL	.
.	.	.	.	.	.	.	.	.	.	.	.	.	.	.	16d/JJ	.
8BB/	.	.	8d\	.	(32dd\LLL	.	(32dd\LLL	.	.	.	.	.	.	.	8d/L	.
.	.	.	.	.	32cc#\JJ)	.	32cc#\JJ)	.	.	.	.	.	.	.	.	.
.	.	.	.	.	8.b\J	.	8.b\J	.	.	.	.	.	.	.	.	.
8C#/J	.	.	8e\J	.	.	.	.	.	.	.	.	.	.	.	8d/J	.
!LO:PB:g=original	!	!	!	!	!	!	!	!	!	!	!	!	!	!	!	!
=-	=-	=-	=-	=-	=-	=-	=-	=-	=-	=-	=-	=-	=-	=-	=-	=-
8D\L	.	.	8F#/L	.	16a/LL	.	16a/LL	.	.	.	.	.	.	.	4d/	.
.	.	.	.	.	16f#/JJ	.	16f#/JJ	.	.	.	.	.	.	.	.	.
.	.	.	.	.	8qqe/	.	8qqe/	.	.	.	.	.	.	.	.	.
8E\	.	.	8G/	.	4d/	.	4d/	.	.	.	.	.	.	.	.	.
8F#\	.	.	8A/	.	.	.	.	.	.	.	.	.	.	.	8r	.
8G\J	.	.	8B/J	.	16ff#\LL	.	16aa\LL	.	.	.	.	.	.	.	16aa\LL	.
.	.	.	.	.	16ee\JJ	.	16gg\JJ	.	.	.	.	.	.	.	16gg\JJ	.
=10	=10	=10	=10	=10	=10	=10	=10	=10	=10	=10	=10	=10	=10	=10	=10	=10
16A\LL	6 4	.	4A/	.	4dd\	.	4ff#\	.	.	.	1ryy	1ryy	1ryy	1ryy	4ff#\	.
16G\	.	.	.	.	.	.	.	.	.	.	.	.	.	.	.	.
16F#\	.	.	.	.	.	.	.	.	.	.	.	.	.	.	.	.
16G\JJ	.	.	.	.	.	.	.	.	.	.	.	.	.	.	.	.
!LO:TX:t=P:problem=mixed beam	!	!	!	!	!	!	!	!	!	!	!	!	!	!	!LO:TX:a:t=t.	!
8A\L	5 3	.	4A/	.	4cc#t\	.	4eeT\	.	.	.	.	.	.	.	4ee\	.
8AA/J	.	.	.	.	.	.	.	.	.	.	.	.	.	.	.	.
4D\	.	.	4A/	.	4dd\	.	4d/ 4a 4ff#	.	.	.	.	.	.	.	4dd\	.
8r	.	.	8r	.	8.ff#\L	.	8.aa\L	.	.	.	.	.	.	.	4r	.
8A\	7	.	8cc#\	.	.	.	.	.	.	.	.	.	.	.	.	.
.	.	.	.	.	16ee\Jk	.	16gg\Jk	.	.	.	.	.	.	.	.	.
!	!	!	!LO:LB:g=original	!	!	!	!	!	!	!	!	!	!	!	!	!
=11	=11	=11	=11	=11	=11	=11	=11	=11	=11	=11	=11	=11	=11	=11	=11	=11
!	!	!	!	!	!	!	!	!	!	!	!	!	!	!	!LO:TX:a:t=1.	!
4d\	.	.	4a\	.	4dd\	.	4d/ 4a 4ff#	.	.	.	1ryy	1ryy	1ryy	1ryy	1r	.
8r	.	.	8r	.	8.ff#\L	.	8.aa\L	.	.	.	.	.	.	.	.	.
8G\	6	.	8b\	.	.	.	.	.	.	.	.	.	.	.	.	.
.	.	.	.	.	16ee\Jk	.	16gg\Jk	.	.	.	.	.	.	.	.	.
!	!	!	!	!	!	!	!LO:LB:g=original	!	!	!	!	!	!	!	!	!
=-	=-	=-	=-	=-	=-	=-	=-	=-	=-	=-	=-	=-	=-	=-	=-	=-
.	.	.	.	.	.	.	8qqgg/	.	.	.	.	.	.	.	.	.
!LO:TX:t=P:problem=mixed beam	!	!	!LO:TX:t=P:problem=mixed beam	!	!	!	!	!	!	!	!	!	!	!	!	!
8A\L	6 4	.	8a\L	.	4dd\	.	8ff#\L	.	.	.	.	.	.	.	.	.
8A\	.	.	8a\	.	.	.	16ee\L	.	.	.	.	.	.	.	.	.
.	.	.	.	.	.	.	16dd\JJ	.	.	.	.	.	.	.	.	.
.	.	.	.	.	.	.	8qqff#/	.	.	.	.	.	.	.	.	.
8AA/	5 3	.	8A/	.	4cc#t\	.	8ee\L	.	.	.	.	.	.	.	.	.
8AA/J	.	.	8A/J	.	.	.	16dd\L	.	.	.	.	.	.	.	.	.
.	.	.	.	.	.	.	16cc#\JJ	.	.	.	.	.	.	.	.	.
=12	=12	=12	=12	=12	=12	=12	=12	=12	=12	=12	=12	=12	=12	=12	=12	=12
!	!	!LO:DY:b:t=pian	!	!LO:DY:b:t=po.	!	!LO:DY:b:t=pia.	!	!LO:DY:b:t=po.	!	!	!	!	!	!	!	!
4D\	.	p	4a\	p	4dd\	p	4ff#\	p	.	.	1ryy	1ryy	1ryy	1ryy	4ff#\	.
8r	.	.	8r	.	8r	.	8r	.	.	.	.	.	.	.	8.aa\L	.
8A\	7	.	8a\	.	8cc#\	.	8ee\	.	.	.	.	.	.	.	.	.
.	.	.	.	.	.	.	.	.	.	.	.	.	.	.	16gg\Jk	.
4d\	.	.	4a\	.	4dd\	.	4ff#\	.	.	.	.	.	.	.	4ff#\	.
8r	.	.	8r	.	8r	.	8r	.	.	.	.	.	.	.	8.aa\L	.
!	!	!LO:DY:b:t=for	!	!LO:DY:b:t=for	!	!LO:DY:b:t=for	!	!LO:DY:b:t=for	!	!	!	!	!	!	!	!
8G\	6	f	8b\	f	8ee\	f	8gg\	f	.	.	.	.	.	.	.	.
.	.	.	.	.	.	.	.	.	.	.	.	.	.	.	16gg\Jk	.
*	*	*	*	*	*	*	*	*	*	*	*	*	*	*	*custos:ee	*
!	!	!	!	!	!	!	!	!	!	!	!	!	!	!	!LO:LB:g=original	!
=13	=13	=13	=13	=13	=13	=13	=13	=13	=13	=13	=13	=13	=13	=13	=13	=13
.	.	.	.	.	.	.	8qqgg/	.	.	.	.	.	.	.	8qqgg/	.
!LO:TX:t=P:problem=mixed beam	!	!	!	!	!	!	!	!	!	!	!	!	!	!	!	!
8A\L	6 4	.	8a\L	.	8dd\L	.	8ff#\L	.	1r	.	1ryy	1ryy	1ryy	1ryy	8ff#\L	.
8A\	.	.	8a\	.	8dd\J	.	16ee\L	.	.	.	.	.	.	.	16ee\L	.
.	.	.	.	.	.	.	16dd\JJ	.	.	.	.	.	.	.	16dd\JJ	.
!	!	!	!	!	!	!	!	!	!	!	!	!	!	!	!LO:TX:a:t=t.	!
.	.	.	.	.	.	.	8qqff#/	.	.	.	.	.	.	.	8qqff#/	.
8AA/	7 3	.	8g\	.	4cc#t\	.	8ee\L	.	.	.	.	.	.	.	4ee\	.
8AA/J	.	.	8g\J	.	.	.	16dd\L	.	.	.	.	.	.	.	.	.
.	.	.	.	.	.	.	16cc#\JJ	.	.	.	.	.	.	.	.	.
!	!	!	!	!	!	!	!	!	!	!	!	!	!	!	!LO:TX:t=P:problem=mixed beam	!
4D/	.	.	8f#|>\L	.	8dd|>\L	.	8dd|>\L	.	.	.	.	.	.	.	8dd|>\L	.
.	.	.	8a|>\J	.	8a|>\J	.	8a|>\J	.	.	.	.	.	.	.	8a|</J	.
4r	.	.	4d\	.	4d/	.	4d/	.	.	.	.	.	.	.	4d/	.
!	!	!	!	!	!LO:LB:g=original	!	!	!	!	!	!	!	!	!	!	!
=14	=14	=14	=14	=14	=14	=14	=14	=14	=14	=14	=14	=14	=14	=14	=14	=14
!	!	!LO:DY:b:t=pia&colon;	!	!LO:DY:b:t=pia&colon;	!	!LO:DY:b:t=pia.	!	!LO:DY:b:t=piano.	!LO:TX:a:i:t=Solo.	!	!	!	!	!	!LO:TX:a:t=2.	!
8D/	.	p	8A/	p	8f#/	p	8a/	p	4D/	Fe-	1ryy	1ryy	1ryy	1ryy	0r	.
8r	.	.	8r	.	8r	.	8r	.	.	.	.	.	.	.	.	.
8C#/	6	.	8A/	.	8e/	.	8a/	.	8.A\	-cit	.	.	.	.	.	.
8r	.	.	8r	.	8r	.	8r	.	.	.	.	.	.	.	.	.
.	.	.	.	.	.	.	.	.	16G\	po-	.	.	.	.	.	.
.	.	.	.	.	.	.	.	.	8qqG/	.	.	.	.	.	.	.
!	!	!LO:DY:b:t=for	!	!	!	!	!	!	!	!	!	!	!	!	!	!
8D\L	.	f	4A/	.	4f#/	.	4a/	.	8.F#\	-ten-	.	.	.	.	.	.
16E\L	.	.	.	.	.	.	.	.	.	.	.	.	.	.	.	.
16F#\JJ	.	.	.	.	.	.	.	.	16E\	-ti-	.	.	.	.	.	.
16G\LL	.	.	4r	.	4r	.	4r	.	4D\	-am	.	.	.	.	.	.
16A\	.	.	.	.	.	.	.	.	.	.	.	.	.	.	.	.
16B\	.	.	.	.	.	.	.	.	.	.	.	.	.	.	.	.
16c#\JJ	.	.	.	.	.	.	.	.	.	.	.	.	.	.	.	.
!LO:LB:g=original	!	!	!	!	!	!	!	!	!	!	!	!	!	!	!	!
=15	=15	=15	=15	=15	=15	=15	=15	=15	=15	=15	=15	=15	=15	=15	=15	=15
!	!	!LO:DY:b:t=pia	!	!	!	!	!	!	!	!	!	!	!	!	!	!
8D/	.	p	8A/	.	8f#/	.	8a/	.	16D\LL	fe-	1ryy	1ryy	1ryy	1ryy	.	.
.	.	.	.	.	.	.	.	.	16E\	.	.	.	.	.	.	.
8r	.	.	8r	.	8r	.	8r	.	16F#\	.	.	.	.	.	.	.
.	.	.	.	.	.	.	.	.	16G\JJ	.	.	.	.	.	.	.
8C#/L	6	.	8A/	.	8e/	.	8a/	.	8A\	-cit	.	.	.	.	.	.
8AA/J	.	.	8r	.	8r	.	8r	.	8G\	po-	.	.	.	.	.	.
*	*	*	*	*	*	*	*	*	*custos:F	*	*	*	*	*	*	*
!	!	!	!	!	!	!	!	!	!LO:LB:g=original	!	!	!	!	!	!	!
=-	=-	=-	=-	=-	=-	=-	=-	=-	=-	=-	=-	=-	=-	=-	=-	=-
.	.	.	.	.	.	.	.	.	8qqG/	.	.	.	.	.	.	.
8D\L	.	.	4A/	.	4f#/	.	4a/	.	8.F#\	-ten-	.	.	.	.	.	.
8E\	.	.	.	.	.	.	.	.	.	.	.	.	.	.	.	.
.	.	.	.	.	.	.	.	.	16E\	-ti-	.	.	.	.	.	.
8F#\	.	.	4r	.	4r	.	4r	.	4D\	-am	.	.	.	.	.	.
8D\J	.	.	.	.	.	.	.	.	.	.	.	.	.	.	.	.
=16	=16	=16	=16	=16	=16	=16	=16	=16	=16	=16	=16	=16	=16	=16	=16	=16
*	*	*	*	*	*	*	*	*	*2\right	*	*	*	*	*	*	*
!	!	!	!	!	!	!	!	!	!	!	!	!	!	!	!	!LO:DY:b:t=pian
8D/L	6 4	.	8d\L	.	(8g/	.	(8b\	.	2B\	in	1ryy	1ryy	1ryy	1ryy	16dd|>\LL	p
.	.	.	.	.	.	.	.	.	.	.	.	.	.	.	16gg|>\	.
8D/	.	.	8d\	.	4b/)	.	4gg\)	.	.	.	.	.	.	.	(16ff#\	.
.	.	.	.	.	.	.	.	.	.	.	.	.	.	.	16gg\JJ)	.
8D/	.	.	8d\	.	.	.	.	.	.	.	.	.	.	.	(16ff#\LL	.
.	.	.	.	.	.	.	.	.	.	.	.	.	.	.	16gg\)	.
8D/J	.	.	8d\J	.	8g|</	.	8b|>\	.	.	.	.	.	.	.	(16ff#\	.
.	.	.	.	.	.	.	.	.	.	.	.	.	.	.	16gg\JJ)	.
8D/L	5 3	.	8d\L	.	(8f#/	.	(8a/	.	(4A\	bra-	.	.	.	.	16dd\LL	.
.	.	.	.	.	.	.	.	.	.	.	.	.	.	.	16ff#\	.
8D/	.	.	8d\	.	4a/)	.	4ff#\)	.	.	.	.	.	.	.	16ee\	.
.	.	.	.	.	.	.	.	.	.	.	.	.	.	.	16ff#\JJ	.
8D/	.	.	8d\	.	.	.	.	.	8d\)	.	.	.	.	.	16dd\LL	.
.	.	.	.	.	.	.	.	.	.	.	.	.	.	.	16ff#\	.
8D/J	.	.	8d\J	.	8f#|</	.	8a|>/	.	16c#\	-chi-	.	.	.	.	16ee\	.
.	.	.	.	.	.	.	.	.	16B\	-o	.	.	.	.	16ff#\JJ	.
=17	=17	=17	=17	=17	=17	=17	=17	=17	=17	=17	=17	=17	=17	=17	=17	=17
!	!	!	!	!	!	!	!	!	!	!	!	!	!	!	!LO:TX:a:t=t.	!
.	.	.	.	.	.	.	.	.	8qqA/	.	.	.	.	.	8qqff#/	.
*	*	*	*	*	*	*	*	*	*	*	*	*	*	*	*2\right	*
8E/L	.	.	8B/L	.	8B/L	.	8g/L	.	2G\	su-	1ryy	1ryy	1ryy	1ryy	2ee\	.
8D/	.	.	8E/	.	8B/	.	8g/	.	.	.	.	.	.	.	.	.
8C#/	6 5	.	8E/	.	8A/	.	8g/	.	.	.	.	.	.	.	.	.
8C#/J	.	.	8E/J	.	8A/J	.	8g/J	.	.	.	.	.	.	.	.	.
!	!	!	!	!	!	!	!	!	!	!	!	!	!	!	!LO:TX:t=P:problem=mixed beam	!
4D/	.	.	4D/	.	4A/	.	4f#/	.	4F#\	-o	.	.	.	.	8dd\L	.
!	!	!	!	!	!	!	!	!	!	!	!	!	!	!	!	!LO:DY:b:t=for
.	.	.	.	.	.	.	.	.	.	.	.	.	.	.	16d/L	f
.	.	.	.	.	.	.	.	.	.	.	.	.	.	.	16d/JJ	.
4r	.	.	4r	.	4r	.	4r	.	4r	.	.	.	.	.	16f#/LL	.
.	.	.	.	.	.	.	.	.	.	.	.	.	.	.	16d/	.
.	.	.	.	.	.	.	.	.	.	.	.	.	.	.	16a/	.
.	.	.	.	.	.	.	.	.	.	.	.	.	.	.	16f#/JJ	.
!	!	!	!LO:LB:g=original	!	!	!	!LO:LB:g=original	!	!	!	!	!	!	!	!	!
=18	=18	=18	=18	=18	=18	=18	=18	=18	=18	=18	=18	=18	=18	=18	=18	=18
8D/L	.	.	8f#\L	.	16dd|>\LL	.	16dd|>\LL	.	4D/	Fe-	1ryy	1ryy	1ryy	1ryy	4dd\	.
.	.	.	.	.	(16dd\	.	(16dd\	.	.	.	.	.	.	.	.	.
8D/	.	.	8f#\	.	16cc#\	.	16cc#\	.	.	.	.	.	.	.	.	.
.	.	.	.	.	16dd\JJ)	.	16dd\JJ)	.	.	.	.	.	.	.	.	.
8D/	.	.	8f#\	.	16ff#\LL	.	16ff#\LL	.	8.F#\	-cit	.	.	.	.	4r	.
.	.	.	.	.	16dd\	.	16dd\	.	.	.	.	.	.	.	.	.
8D/J	4 2	.	8e\J	.	16bb\	.	16bb\	.	.	.	.	.	.	.	.	.
.	.	.	.	.	16gg#X\JJ	.	16gg#X\JJ	.	16G#X\	po-	.	.	.	.	.	.
8C#/L	6	.	8e\L	.	16aa|>\LL	.	16aa|>\LL	.	8.A\	-ten-	.	.	.	.	2r	.
.	.	.	.	.	(16cc#\	.	(16cc#\	.	.	.	.	.	.	.	.	.
8C#/	.	.	8e\	.	16b\	.	16b\	.	.	.	.	.	.	.	.	.
.	.	.	.	.	16a\JJ)	.	16a\JJ)	.	16E\	-ti-	.	.	.	.	.	.
8C#/	.	.	8e\	.	16a/LL	.	16a/LL	.	4E\	-am	.	.	.	.	.	.
.	.	.	.	.	16a/	.	16a/	.	.	.	.	.	.	.	.	.
8C#/J	.	.	8e\J	.	16a/	.	16a/	.	.	.	.	.	.	.	.	.
.	.	.	.	.	16a/JJ	.	16a/JJ	.	.	.	.	.	.	.	.	.
=19	=19	=19	=19	=19	=19	=19	=19	=19	=19	=19	=19	=19	=19	=19	=19	=19
8D/L	.	.	8f#\L	.	16dd|>\LL	.	16dd|>\LL	.	4D/	in	1ryy	1ryy	1ryy	1ryy	4a/	.
.	.	.	.	.	(16dd\	.	(16dd\	.	.	.	.	.	.	.	.	.
8D/	.	.	8f#\	.	16cc#\	.	16cc#\	.	.	.	.	.	.	.	.	.
.	.	.	.	.	16dd\JJ)	.	16dd\JJ)	.	.	.	.	.	.	.	.	.
8D/	.	.	8f#\	.	16ff#\LL	.	16ff#\LL	.	8F#\	bra-	.	.	.	.	4r	.
.	.	.	.	.	16dd\	.	16dd\	.	.	.	.	.	.	.	.	.
8D/J	4 2	.	8e\J	.	16bb\	.	16bb\	.	16G#X\	-chi-	.	.	.	.	.	.
.	.	.	.	.	16gg#X\JJ	.	16gg#X\JJ	.	16G#\	-o	.	.	.	.	.	.
!	!	!	!	!	!LO:LB:g=original	!	!	!	!	!	!	!	!	!	!	!
=-	=-	=-	=-	=-	=-	=-	=-	=-	=-	=-	=-	=-	=-	=-	=-	=-
8C#/L	6	.	8e\L	.	16aa|>\LL	.	16aa|>\LL	.	4A\	Su-	.	.	.	.	2r	.
.	.	.	.	.	(16cc#\	.	(16cc#\	.	.	.	.	.	.	.	.	.
8C#/	.	.	8e\	.	16b\	.	16b\	.	.	.	.	.	.	.	.	.
.	.	.	.	.	16a\JJ)	.	16a\JJ)	.	.	.	.	.	.	.	.	.
8C#/	.	.	8e\	.	16a/LL	.	16a/LL	.	4E\	-o	.	.	.	.	.	.
.	.	.	.	.	16a/	.	16a/	.	.	.	.	.	.	.	.	.
8C#/J	.	.	8e\J	.	16a/	.	16a/	.	.	.	.	.	.	.	.	.
.	.	.	.	.	16a/JJ	.	16a/JJ	.	.	.	.	.	.	.	.	.
!	!	!	!	!	!	!	!	!	!LO:LB:g=original	!	!	!	!	!	!	!
=20	=20	=20	=20	=20	=20	=20	=20	=20	=20	=20	=20	=20	=20	=20	=20	=20
!	!	!	!	!	!	!	!	!	!	!	!	!	!	!	!	!LO:DY:b:t=pian
8D/L	.	.	8A/L	.	8d/L	.	8f#/L	.	4F#\	Fe-	1ryy	1ryy	1ryy	1ryy	16ff#\LL	p
.	.	.	.	.	.	.	.	.	.	.	.	.	.	.	16gg\	.
8D/	.	.	8A/	.	8d/	.	8f#/	.	.	.	.	.	.	.	16aa\	.
.	.	.	.	.	.	.	.	.	.	.	.	.	.	.	16gg\JJ	.
8D/	.	.	8A/	.	8d/	.	8f#/	.	8.D\L	.	.	.	.	.	8ff#\L	.
8D/J	.	.	8A/J	.	8d/J	.	8f#/J	.	.	.	.	.	.	.	8ff#\J	.
.	.	.	.	.	.	.	.	.	16E\Jk	.	.	.	.	.	.	.
!LO:LB:g=original	!	!	!	!	!	!	!	!	!	!	!	!	!	!	!	!
=-	=-	=-	=-	=-	=-	=-	=-	=-	=-	=-	=-	=-	=-	=-	=-	=-
!	!	!	!	!	!	!	!	!	!	!	!	!	!	!	!LO:TX:a:t=t.	!
.	.	.	.	.	.	.	.	.	.	.	.	.	.	.	8qqgg/	.
8GG#X/L	7	.	8B/L	.	8d/L	.	8f#/L	.	8F#\L	.	.	.	.	.	2ff#\	.
8GG#/	.	.	8B/	.	8d/	.	8f#/	.	16G#X\L	.	.	.	.	.	.	.
.	.	.	.	.	.	.	.	.	16A\JJ	.	.	.	.	.	.	.
8GG#/	.	.	8B/	.	8d/	.	8f#/	.	16B\LL	.	.	.	.	.	.	.
.	.	.	.	.	.	.	.	.	16A\	.	.	.	.	.	.	.
8GG#/J	.	.	8B/J	.	8d/J	.	8f#/J	.	16G#X\	.	.	.	.	.	.	.
.	.	.	.	.	.	.	.	.	16F#\JJ	.	.	.	.	.	.	.
!	!	!	!	!	!	!	!	!	!	!	!	!	!	!	!LO:LB:g=original	!
=21	=21	=21	=21	=21	=21	=21	=21	=21	=21	=21	=21	=21	=21	=21	=21	=21
8C#/L	7	.	8B/L	.	8c#/L	.	8e/L	.	4E\	.	1ryy	1ryy	1ryy	1ryy	16ee\LL	.
.	.	.	.	.	.	.	.	.	.	.	.	.	.	.	16ff#\	.
8C#/	.	.	8B/	.	8c#/	.	8e/	.	.	.	.	.	.	.	16gg#X\	.
.	.	.	.	.	.	.	.	.	.	.	.	.	.	.	16ff#\JJ	.
8C#/	.	.	8B/	.	8c#/	.	8e/	.	8.C#\L	.	.	.	.	.	8ee\L	.
8C#/J	.	.	8B/J	.	8c#/J	.	8e/J	.	.	.	.	.	.	.	8ee\J	.
.	.	.	.	.	.	.	.	.	16D\Jk	.	.	.	.	.	.	.
!	!	!	!	!	!	!	!	!	!	!	!	!	!	!	!LO:TX:a:t=t.	!
.	.	.	.	.	.	.	.	.	.	.	.	.	.	.	8qqff#/	.
8FF#/L	7	.	8A/L	.	8c#/L	.	8e/L	.	8E\L	.	.	.	.	.	2ee\	.
8FF#/	.	.	8A/	.	8c#/	.	8e/	.	16F#\L	.	.	.	.	.	.	.
.	.	.	.	.	.	.	.	.	16G#X\JJ	.	.	.	.	.	.	.
8FF#/	.	.	8A/	.	8c#/	.	8e/	.	16A\LL	.	.	.	.	.	.	.
.	.	.	.	.	.	.	.	.	16G#\	.	.	.	.	.	.	.
8FF#/J	.	.	8A/J	.	8c#/J	.	8e/J	.	16F#\	.	.	.	.	.	.	.
.	.	.	.	.	.	.	.	.	16E\JJ	.	.	.	.	.	.	.
=22	=22	=22	=22	=22	=22	=22	=22	=22	=22	=22	=22	=22	=22	=22	=22	=22
8BB/L	7	.	8A/L	.	8B/L	.	8d/L	.	4D\	.	1ryy	1ryy	1ryy	1ryy	16dd\LL	.
.	.	.	.	.	.	.	.	.	.	.	.	.	.	.	16ee\	.
8BB/	.	.	8A/	.	8B/	.	8d/	.	.	.	.	.	.	.	16ff#\	.
.	.	.	.	.	.	.	.	.	.	.	.	.	.	.	16ee\JJ	.
8BB/	.	.	8A/	.	8B/	.	8d/	.	8.BB/L	.	.	.	.	.	8dd\L	.
8BB/J	.	.	8A/J	.	8B/J	.	8d/J	.	.	.	.	.	.	.	8dd\J	.
.	.	.	.	.	.	.	.	.	16C#/Jk	.	.	.	.	.	.	.
!	!	!	!	!	!	!	!	!	!	!	!	!	!	!	!LO:TX:a:t=t.	!
.	.	.	.	.	.	.	.	.	.	.	.	.	.	.	8qqee/	.
8EE/L	7 #	.	8G#X/L	.	8B/L	.	8d/L	.	8D\L	.	.	.	.	.	2dd\	.
8EE/	.	.	8G#/	.	8B/	.	8d/	.	16B\L	.	.	.	.	.	.	.
.	.	.	.	.	.	.	.	.	16A\JJ	.	.	.	.	.	.	.
8EE/	.	.	8G#/	.	8B/	.	8d/	.	16G#X\LL	.	.	.	.	.	.	.
.	.	.	.	.	.	.	.	.	16F#\	.	.	.	.	.	.	.
8EE/J	.	.	8G#/J	.	8B/J	.	8d/J	.	16E\	.	.	.	.	.	.	.
.	.	.	.	.	.	.	.	.	16D\JJ	.	.	.	.	.	.	.
=23	=23	=23	=23	=23	=23	=23	=23	=23	=23	=23	=23	=23	=23	=23	=23	=23
!	!	!	!LO:TX:t=P:problem=mixed beam	!	!LO:TX:t=P:problem=mixed beam	!	!LO:TX:t=P:problem=mixed beam	!	!	!	!	!	!	!	!	!
4AA/	.	.	8A/L	.	8A/L	.	8c#/L	.	8C#/L	.	1ryy	1ryy	1ryy	1ryy	4a/	.
.	.	.	8cc#\	.	8ee\	.	8aa\	.	8E/J	.	.	.	.	.	.	.
8r	.	.	8cc#\	.	8ee\	.	8aa\	.	4.A\	.	.	.	.	.	4r	.
8C#/	6	.	8cc#\J	.	8ee\J	.	8aa\J	.	.	.	.	.	.	.	.	.
!	!	!	!	!	!	!	!LO:LB:g=original	!	!	!	!	!	!	!	!	!
=-	=-	=-	=-	=-	=-	=-	=-	=-	=-	=-	=-	=-	=-	=-	=-	=-
8BB/L	7	.	8b\L	.	8dd\L	.	8aa\L	.	.	.	.	.	.	.	2r	.
8BB/	6\	.	8b\	.	8dd\	.	8gg#X\	.	16B\LL	.	.	.	.	.	.	.
.	.	.	.	.	.	.	.	.	16c#\JJ	.	.	.	.	.	.	.
8E/	7 #	.	8b\	.	8dd\	.	8gg#\	.	8d\L	.	.	.	.	.	.	.
!	!	!	!	!	!	!	!	!	!LO:TX:a:t=//	!	!	!	!	!	!	!
8E/J	.	.	8b\J	.	8dd\J	.	8gg#\J	.	8B\J	.	.	.	.	.	.	.
!	!	!	!LO:LB:g=original	!	!	!	!	!	!LO:LB:g=original	!	!	!	!	!	!	!
=24	=24	=24	=24	=24	=24	=24	=24	=24	=24	=24	=24	=24	=24	=24	=24	=24
!	!	!	!	!	!	!	!	!	!LO:TX:a:t=//	!	!	!	!	!	!	!
4AA/	.	.	8a\L	.	8cc#\L	.	8aa\L	.	8c#\L	.	1ryy	1ryy	1ryy	1ryy	4a/	.
.	.	.	8a\	.	8cc#\	.	8aa\	.	8G#X\J	.	.	.	.	.	.	.
8r	.	.	8cc#\	.	8ee\	.	8aa\	.	4.A\	.	.	.	.	.	4r	.
8C#/	6	.	8cc#\J	.	8ee\J	.	8aa\J	.	.	.	.	.	.	.	.	.
8BB/L	7	.	8b\L	.	8dd\L	.	8aa\L	.	.	.	.	.	.	.	2r	.
8BB/	6\	.	8b\	.	8dd\	.	8gg#X\	.	16B\LL	.	.	.	.	.	.	.
.	.	.	.	.	.	.	.	.	16c#\JJ	.	.	.	.	.	.	.
8E/	7 #	.	8b\	.	8dd\	.	8gg#\	.	8d\L	.	.	.	.	.	.	.
!	!	!	!	!	!	!	!	!	!LO:TX:a:t=Vi	!	!	!	!	!	!	!
8E/J	.	.	8b\J	.	8dd\J	.	8gg#\J	.	8B\J	.	.	.	.	.	.	.
!	!	!	!	!	!LO:LB:g=original	!	!	!	!	!	!	!	!	!	!	!
=25	=25	=25	=25	=25	=25	=25	=25	=25	=25	=25	=25	=25	=25	=25	=25	=25
!	!	!	!	!	!	!	!	!	!LO:TX:a:t=de	!	!	!	!	!	!LO:TX:a:t=2.	!
4AA/	.	.	4a\	.	4cc#\	.	4aa\	.	(8c#\L	.	1ryy	1ryy	1ryy	1ryy	0r	.
.	.	.	.	.	.	.	.	.	8G#X\J)	.	.	.	.	.	.	.
8r	.	.	8r	.	8r	.	8r	.	8A\	-cit	.	.	.	.	.	.
8D\	7 5	.	8f#\	.	8a/	.	8cc#\	.	8D\	po-	.	.	.	.	.	.
8E\L	6 4	.	8e\L	.	8a/L	.	8cc#\L	.	4.ET\	-ten-	.	.	.	.	.	.
8E\	.	.	8e\	.	8a/	.	8cc#\	.	.	.	.	.	.	.	.	.
8E\	.	.	8e\	.	8a/	.	8cc#\	.	.	.	.	.	.	.	.	.
8E\J	.	.	8e\J	.	8a/J	.	8cc#\J	.	8E\	-ti-	.	.	.	.	.	.
!LO:LB:g=original	!	!	!	!	!	!	!	!	!	!	!	!	!	!	!	!
=26	=26	=26	=26	=26	=26	=26	=26	=26	=26	=26	=26	=26	=26	=26	=26	=26
8F#\L	5	.	8f#\L	.	8a/L	.	8cc#\L	.	4F#\	-am	1ryy	1ryy	1ryy	1ryy	.	.
8F#\	.	.	8f#\	.	8a/	.	8cc#\	.	.	.	.	.	.	.	.	.
8C#\	6	.	8e\	.	8a/	.	8cc#\	.	4A\	po-	.	.	.	.	.	.
8D\J	.	.	8f#\J	.	8a/J	.	8cc#\J	.	.	.	.	.	.	.	.	.
!LO:TX:t=P:problem=mixed beam	!	!	!	!	!	!	!	!	!	!	!	!	!	!	!	!
8E\L	4	.	8B\L	.	8a/L	.	8b/L	.	4.ET\	-ten-	.	.	.	.	.	.
8E\	.	.	8e\	.	8a/	.	8b/	.	.	.	.	.	.	.	.	.
8EE/	#	.	8e\	.	8g#X/	.	8b/	.	.	.	.	.	.	.	.	.
8EE/J	.	.	8e\J	.	8g#/J	.	8b/J	.	8E\	-ti-	.	.	.	.	.	.
=27	=27	=27	=27	=27	=27	=27	=27	=27	=27	=27	=27	=27	=27	=27	=27	=27
8AA/L	.	.	8e\L	.	4a/	.	4cc#\	.	4AA/	-am	1ryy	1ryy	1ryy	1ryy	4r	.
!	!	!LO:DY:b:t=for	!	!LO:DY:b:t=for&colon;	!	!	!	!	!	!	!	!	!	!	!	!
16AA/L	.	f	16c#\L	f	.	.	.	.	.	.	.	.	.	.	.	.
16BB/JJ	.	.	16d\JJ	.	.	.	.	.	.	.	.	.	.	.	.	.
8C#/L	6	.	8e\L	.	8r	.	8r	.	4r	.	.	.	.	.	8r	.
!	!	!	!	!	!	!LO:DY:b:t=for	!	!LO:DY:b:t=for.	!	!	!	!	!	!	!	!LO:DY:b:t=for
8AA/J	.	.	8c#\J	.	8ee\	f	8ee\	f	.	.	.	.	.	.	8ee\	f
8D\L	.	.	4.a\	.	8ff#|>\L	.	8ff#|>\L	.	2r	.	.	.	.	.	8ff#\L	.
8D\	.	.	.	.	(16ff#\L	.	(16ff#\L	.	.	.	.	.	.	.	(16ff#\L	.
.	.	.	.	.	16ee\JJ)	.	16ee\JJ)	.	.	.	.	.	.	.	16ee\JJ)	.
8D\	.	.	.	.	(16ff#\LL	.	(16ff#\LL	.	.	.	.	.	.	.	(16ff#\LL	.
.	.	.	.	.	16ee\)	.	16ee\)	.	.	.	.	.	.	.	16ee\)	.
8D\J	.	.	8dd\	.	(16ff#\	.	(16ff#\	.	.	.	.	.	.	.	(16ff#\	.
.	.	.	.	.	16ee\JJ)	.	16ee\JJ)	.	.	.	.	.	.	.	16ee\JJ)	.
=28	=28	=28	=28	=28	=28	=28	=28	=28	=28	=28	=28	=28	=28	=28	=28	=28
.	.	.	.	.	.	.	.	.	.	.	.	.	.	.	8qqee/	.
!	!	!	!	!	!	!	!	!	!LO:TX:a:t=14.	!	!	!	!	!	!	!
8G#X\L	7	.	4.dd\	.	(16ff#\LL	.	(16ff#\LL	.	00r	.	1ryy	1ryy	1ryy	1ryy	2ff#\	.
.	.	.	.	.	16bb\	.	16bb\	.	.	.	.	.	.	.	.	.
8G#\	.	.	.	.	16ddd\)	.	16ddd\)	.	.	.	.	.	.	.	.	.
.	.	.	.	.	16ccc#\JJ	.	16ccc#|>\JJ	.	.	.	.	.	.	.	.	.
8G#\	.	.	.	.	16bb\LL	.	16bb\LL	.	.	.	.	.	.	.	.	.
.	.	.	.	.	16aa\	.	16aa\	.	.	.	.	.	.	.	.	.
8G#\J	.	.	8b\	.	16gg#X\	.	16gg#X\	.	.	.	.	.	.	.	.	.
.	.	.	.	.	16ff#\JJ	.	16ff#\JJ	.	.	.	.	.	.	.	.	.
8C#/L	7	.	4.g#X\	.	8ee|>\L	.	8ee|>\L	.	.	.	.	.	.	.	8ee\L	.
8C#/	.	.	.	.	(16ee\L	.	(16ee\L	.	.	.	.	.	.	.	(16ee\L	.
.	.	.	.	.	16dd\JJ)	.	16dd\JJ)	.	.	.	.	.	.	.	16dd\JJ)	.
8C#/	.	.	.	.	(16ee\LL	.	(16ee\LL	.	.	.	.	.	.	.	(16ee\LL	.
.	.	.	.	.	16dd\)	.	16dd\)	.	.	.	.	.	.	.	16dd\)	.
8C#/J	.	.	8cc#\	.	(16ee\	.	(16ee\	.	.	.	.	.	.	.	(16ee\	.
.	.	.	.	.	16dd\JJ)	.	16dd\JJ)	.	.	.	.	.	.	.	16dd\JJ)	.
!	!	!	!	!	!	!	!	!	!	!	!	!	!	!	!LO:LB:g=original	!
=29	=29	=29	=29	=29	=29	=29	=29	=29	=29	=29	=29	=29	=29	=29	=29	=29
.	.	.	.	.	.	.	.	.	.	.	.	.	.	.	8qqdd/	.
8F#\L	7	.	4.cc#\	.	(16ee\LL	.	(16ee\LL	.	.	.	1ryy	1ryy	1ryy	1ryy	2ee\	.
.	.	.	.	.	16aa\	.	16aa\	.	.	.	.	.	.	.	.	.
8F#\	.	.	.	.	16ccc#\	.	16ccc#\)	.	.	.	.	.	.	.	.	.
.	.	.	.	.	16bb\JJ)	.	16bb|>\JJ	.	.	.	.	.	.	.	.	.
8F#\	.	.	.	.	16aa\LL	.	16aa\LL	.	.	.	.	.	.	.	.	.
.	.	.	.	.	16gg#X\	.	16gg#X\	.	.	.	.	.	.	.	.	.
8F#\J	.	.	8a\	.	16ff#\	.	16ff#\	.	.	.	.	.	.	.	.	.
.	.	.	.	.	16ee\JJ	.	16ee\JJ	.	.	.	.	.	.	.	.	.
!	!	!	!	!	!LO:LB:g=original	!	!LO:LB:g=original	!	!	!	!	!	!	!	!	!
=-	=-	=-	=-	=-	=-	=-	=-	=-	=-	=-	=-	=-	=-	=-	=-	=-
8BB/L	7	.	4.f#\	.	8dd|>\L	.	8dd|>\L	.	.	.	.	.	.	.	2r	.
8BB/	.	.	.	.	(16dd\L	.	(16dd\L	.	.	.	.	.	.	.	.	.
.	.	.	.	.	16cc#\JJ)	.	16cc#\JJ)	.	.	.	.	.	.	.	.	.
8BB/	.	.	.	.	(16dd\LL	.	(16dd\LL	.	.	.	.	.	.	.	.	.
.	.	.	.	.	16cc#\)	.	16cc#\)	.	.	.	.	.	.	.	.	.
8BB/J	.	.	8b\	.	(16dd\	.	(16dd\	.	.	.	.	.	.	.	.	.
.	.	.	.	.	16cc#\JJ)	.	16cc#\JJ)	.	.	.	.	.	.	.	.	.
=30	=30	=30	=30	=30	=30	=30	=30	=30	=30	=30	=30	=30	=30	=30	=30	=30
8E\L	7 #	.	4.b\	.	(16dd\LL	.	(16dd\LL	.	.	.	1ryy	1ryy	1ryy	1ryy	2r	.
.	.	.	.	.	16gg#X\	.	16gg#X\	.	.	.	.	.	.	.	.	.
8E\	.	.	.	.	16bb\)	.	16bb\)	.	.	.	.	.	.	.	.	.
.	.	.	.	.	16aa|>\JJ	.	16aa|>\JJ	.	.	.	.	.	.	.	.	.
8E\	.	.	.	.	16gg#X\LL	.	16gg#X\LL	.	.	.	.	.	.	.	.	.
.	.	.	.	.	16ff#\	.	16ff#\	.	.	.	.	.	.	.	.	.
8E\J	.	.	8g#X\	.	16ee\	.	16ee\	.	.	.	.	.	.	.	.	.
.	.	.	.	.	16dd\JJ	.	16dd\JJ	.	.	.	.	.	.	.	.	.
!	!	!	!LO:LB:g=original	!	!	!	!	!	!	!	!	!	!	!	!	!
=-	=-	=-	=-	=-	=-	=-	=-	=-	=-	=-	=-	=-	=-	=-	=-	=-
!	!	!	!	!	!LO:TX:t=P:problem=mixed beam	!LO:DY:b:t=po	!LO:TX:t=P:problem=mixed beam	!LO:DY:b:t=po.	!	!	!	!	!	!	!	!
4AA/	.	.	4e\	.	8cc#\L	p	8cc#\L	p	.	.	.	.	.	.	4ee\	.
!	!	!	!	!	!LO:TX:b:t=a	!	!	!	!	!	!	!	!	!	!	!
.	.	.	.	.	8A/	.	8c#/	.	.	.	.	.	.	.	.	.
!	!	!	!	!	!LO:TX:b:t=a	!	!	!	!	!	!	!	!	!	!	!
4r	.	.	4r	.	8A/	.	8c#/	.	.	.	.	.	.	.	8.ff#\L	.
!	!	!	!	!	!LO:TX:b:t=a	!	!	!	!	!	!	!	!	!	!	!
.	.	.	.	.	8A/J	.	8a/J	.	.	.	.	.	.	.	.	.
.	.	.	.	.	.	.	.	.	.	.	.	.	.	.	16gg\Jk	.
=31	=31	=31	=31	=31	=31	=31	=31	=31	=31	=31	=31	=31	=31	=31	=31	=31
!LO:TX:a:t=1.	!	!	!LO:TX:a:t=1.	!	!	!	!	!	!	!	!	!	!	!	!	!
1r	.	.	1r	.	8d/L	.	8a/L	.	.	.	1ryy	1ryy	1ryy	1ryy	8ff#\	.
.	.	.	.	.	8d/	.	8a/	.	.	.	.	.	.	.	4ee\	.
.	.	.	.	.	8d/	.	8a/	.	.	.	.	.	.	.	.	.
.	.	.	.	.	8d/J	.	8a/J	.	.	.	.	.	.	.	8dd\	.
.	.	.	.	.	8d#X/L	.	8f#/L	.	.	.	.	.	.	.	4ff#\	.
.	.	.	.	.	8d#/	.	8f#/	.	.	.	.	.	.	.	.	.
!	!	!	!	!	!	!	!	!	!	!	!	!	!	!	!LO:TX:a:t=t.	!
.	.	.	.	.	8d#/	.	8f#/	.	.	.	.	.	.	.	8.gg#X\L	.
.	.	.	.	.	8d#/J	.	8f#/J	.	.	.	.	.	.	.	.	.
.	.	.	.	.	.	.	.	.	.	.	.	.	.	.	16aa\Jk	.
!LO:LB:g=original	!	!	!	!	!	!	!	!	!	!	!	!	!	!	!	!
=32	=32	=32	=32	=32	=32	=32	=32	=32	=32	=32	=32	=32	=32	=32	=32	=32
8r	.	.	8r	.	4e/	.	4e/	.	00r	.	1ryy	1ryy	1ryy	1ryy	16gg#X\LL	.
.	.	.	.	.	.	.	.	.	.	.	.	.	.	.	16ff#\J	.
16E\LL	#	.	16g#X\LL	.	.	.	.	.	.	.	.	.	.	.	8ee\J	.
16F#\JJ	.	.	16a\JJ	.	.	.	.	.	.	.	.	.	.	.	.	.
8G#X\L	.	.	8b\L	.	8r	.	8r	.	.	.	.	.	.	.	4r	.
!	!	!	!	!	!	!LO:DY:b:t=for	!	!LO:DY:b:t=for	!	!	!	!	!	!	!	!
8E\J	.	.	8g#X\J	.	8b/	f	8b/	f	.	.	.	.	.	.	.	.
8AA/L	.	.	8e\L	.	(32cc#\LLL	.	(32cc#\LLL	.	.	.	.	.	.	.	8r	.
.	.	.	.	.	32b\JJ	.	32b\JJ	.	.	.	.	.	.	.	.	.
.	.	.	.	.	8.a\J)	.	8.a\J)	.	.	.	.	.	.	.	.	.
8BB/	.	.	8d\	.	.	.	.	.	.	.	.	.	.	.	16ee\LL	.
.	.	.	.	.	.	.	.	.	.	.	.	.	.	.	16ee\JJ	.
8C#/	.	.	8e\	.	(32ee\LLL	.	(32ee\LLL	.	.	.	.	.	.	.	8ee\L	.
.	.	.	.	.	32dd\JJ	.	32dd\JJ	.	.	.	.	.	.	.	.	.
.	.	.	.	.	8.cc#\J)	.	8.cc#\J)	.	.	.	.	.	.	.	.	.
8D/J	.	.	8f#\J	.	.	.	.	.	.	.	.	.	.	.	8ee\J	.
=33	=33	=33	=33	=33	=33	=33	=33	=33	=33	=33	=33	=33	=33	=33	=33	=33
8E\L	#	.	8g#X\L	.	16b/LL	.	16b/LL	.	.	.	1ryy	1ryy	1ryy	1ryy	4ee\	.
.	.	.	.	.	16g#X/JJ	.	16g#X/JJ	.	.	.	.	.	.	.	.	.
.	.	.	.	.	8qqf#/	.	8qqf#/	.	.	.	.	.	.	.	.	.
8F#\	.	.	8a\	.	4e/	.	4e/	.	.	.	.	.	.	.	.	.
8G#X\	.	.	8b\	.	.	.	.	.	.	.	.	.	.	.	4r	.
8A\J	.	.	8a\J	.	8cc#\	.	8cc#\	.	.	.	.	.	.	.	.	.
8BB/L	.	.	8f#\L	.	(32dd\LLL	.	(32dd\LLL	.	.	.	.	.	.	.	2r	.
.	.	.	.	.	32cc#\JJ	.	32cc#\JJ	.	.	.	.	.	.	.	.	.
.	.	.	.	.	8.b\J)	.	8.b\J)	.	.	.	.	.	.	.	.	.
8C#/	.	.	8e\	.	.	.	.	.	.	.	.	.	.	.	.	.
8D/	.	.	8f#\	.	(32ff#\LLL	.	(32ff#\LLL	.	.	.	.	.	.	.	.	.
.	.	.	.	.	32ee\JJ	.	32ee\JJ	.	.	.	.	.	.	.	.	.
.	.	.	.	.	8.dd\J)	.	8.dd\J)	.	.	.	.	.	.	.	.	.
8E/J	.	.	8g#X\J	.	.	.	.	.	.	.	.	.	.	.	.	.
!	!	!	!	!	!LO:LB:g=original	!	!	!	!	!	!	!	!	!	!	!
=34	=34	=34	=34	=34	=34	=34	=34	=34	=34	=34	=34	=34	=34	=34	=34	=34
!LO:TX:t=P:problem=mixed beam	!	!	!LO:TX:t=P:problem=mixed beam	!	!	!	!	!	!	!	!	!	!	!	!LO:TX:a:t=1.	!
8F#\L	.	.	8c#/L	.	16cc#\LL	.	16cc#\LL	.	.	.	1ryy	1ryy	1ryy	1ryy	1r	.
.	.	.	.	.	16a\JJ	.	16a\JJ	.	.	.	.	.	.	.	.	.
!	!	!	!	!	!LO:SIC:v:s=8qqg#/	!	!LO:SIC:v:s=8qqg#/	!	!	!	!	!	!	!	!	!
.	.	.	.	.	8qqg/	.	8qqg/	.	.	.	.	.	.	.	.	.
8G#X\	.	.	8B/	.	4f#/	.	4f#/	.	.	.	.	.	.	.	.	.
8A\	6	.	8c#/	.	.	.	.	.	.	.	.	.	.	.	.	.
8AA/J	5	.	8cc#\J	.	8ee\	.	8ee\	.	.	.	.	.	.	.	.	.
!	!	!	!	!	!	!	!LO:LB:g=original	!	!	!	!	!	!	!	!	!
=-	=-	=-	=-	=-	=-	=-	=-	=-	=-	=-	=-	=-	=-	=-	=-	=-
8D\L	.	.	8a\L	.	(32ff#\LLL	.	(32ff#\LLL	.	.	.	.	.	.	.	.	.
.	.	.	.	.	32ee\JJ	.	32ee\JJ	.	.	.	.	.	.	.	.	.
.	.	.	.	.	8.dd\J)	.	8.dd\J)	.	.	.	.	.	.	.	.	.
8E\	.	.	8g\	.	.	.	.	.	.	.	.	.	.	.	.	.
8F#\	.	.	8a\	.	(32aa\LLL	.	(32aa\LLL	.	.	.	.	.	.	.	.	.
!	!	!	!	!	!LO:SIC:v:s=32ggg#\JJ	!	!LO:SIC:v:s=32ggg#\JJ	!	!	!	!	!	!	!	!	!
.	.	.	.	.	32gg\JJ	.	32gg\JJ	.	.	.	.	.	.	.	.	.
.	.	.	.	.	8.ff#\J)	.	8.ff#\J)	.	.	.	.	.	.	.	.	.
8G#X\J	.	.	8b\J	.	.	.	.	.	.	.	.	.	.	.	.	.
=35	=35	=35	=35	=35	=35	=35	=35	=35	=35	=35	=35	=35	=35	=35	=35	=35
8AA/L	.	.	8e\L	.	(16ee\LL	.	(16ee\LL	.	.	.	1ryy	1ryy	1ryy	1ryy	16ee|>\LL	.
.	.	.	.	.	16aa\	.	16aa\	.	.	.	.	.	.	.	16aa|>\	.
8BB/	.	.	8d\	.	16gg#X\)	.	16gg#X\)	.	.	.	.	.	.	.	(16gg#X\	.
.	.	.	.	.	16ff#\JJ	.	16ff#\JJ	.	.	.	.	.	.	.	16aa\JJ)	.
8C#/	.	.	8e\	.	8ee\L	.	8ee\L	.	.	.	.	.	.	.	(16gg#\LL	.
.	.	.	.	.	.	.	.	.	.	.	.	.	.	.	16aa\)	.
8D/J	.	.	8f#\J	.	8dd\J	.	8dd\J	.	.	.	.	.	.	.	(16gg#\	.
.	.	.	.	.	.	.	.	.	.	.	.	.	.	.	16aa\JJ)	.
8E\L	6 4	.	8e\L	.	4cc#\	.	4cc#t\	.	.	.	.	.	.	.	4aa\	.
8E\	.	.	8e\	.	.	.	.	.	.	.	.	.	.	.	.	.
!	!	!	!	!	!	!	!	!	!	!	!	!	!	!	!LO:TX:a:t=t.	!
8E\	5 #	.	8e\	.	8.bT\L	.	8.b\L	.	.	.	.	.	.	.	4gg#X\	.
8E\J	.	.	8e\J	.	.	.	.	.	.	.	.	.	.	.	.	.
.	.	.	.	.	16cc#\Jk	.	16cc#\Jk	.	.	.	.	.	.	.	.	.
!	!	!	!	!	!	!	!	!	!	!	!	!	!	!	!LO:LB:g=original	!
=36	=36	=36	=36	=36	=36	=36	=36	=36	=36	=36	=36	=36	=36	=36	=36	=36
!	!	!LO:DY:b:t=pia&colon;	!	!	!	!	!	!	!	!	!	!	!	!	!	!
8F#\L	6	p	8a\L	.	16dd|>\LL	.	16dd|>\LL	.	00r	.	1ryy	1ryy	1ryy	1ryy	4aa\	.
!	!	!	!	!	!	!LO:DY:b:t=pia	!	!LO:DY:b:t=piano.	!	!	!	!	!	!	!	!
.	.	.	.	.	(16dd\	p	(16dd\	p	.	.	.	.	.	.	.	.
8F#\	.	.	8a\	.	16cc#\	.	16cc#\	.	.	.	.	.	.	.	.	.
.	.	.	.	.	16dd\JJ)	.	16dd\JJ)	.	.	.	.	.	.	.	.	.
8F#\	.	.	8a\	.	16ff#|>\LL	.	(16ff#\LL	.	.	.	.	.	.	.	4r	.
.	.	.	.	.	(16dd\	.	16dd\)	.	.	.	.	.	.	.	.	.
8F#\J	.	.	8a\J	.	16cc#\	.	16cc#\	.	.	.	.	.	.	.	.	.
*custos:E	*	*	*	*	*	*	*	*	*	*	*	*	*	*	*	*
.	.	.	.	.	16b#X\JJ)	.	16b#X\JJ	.	.	.	.	.	.	.	.	.
!LO:LB:g=original	!	!	!	!	!	!	!	!	!	!	!	!	!	!	!	!
=-	=-	=-	=-	=-	=-	=-	=-	=-	=-	=-	=-	=-	=-	=-	=-	=-
8E\L	6 #	.	8g#X\L	.	16cc#|>\LL	.	16cc#|>\LL	.	.	.	.	.	.	.	2r	.
.	.	.	.	.	(16cc#\	.	(16cc#\	.	.	.	.	.	.	.	.	.
8E\	.	.	8g#\	.	16b#\	.	16b#\	.	.	.	.	.	.	.	.	.
.	.	.	.	.	16cc#\JJ)	.	16cc#\JJ)	.	.	.	.	.	.	.	.	.
8E\	.	.	8g#\	.	(16ee\LL	.	(16ee\LL	.	.	.	.	.	.	.	.	.
.	.	.	.	.	16cc#\)	.	16cc#\	.	.	.	.	.	.	.	.	.
8E\J	.	.	8g#\J	.	16bn\	.	16bn\)	.	.	.	.	.	.	.	.	.
.	.	.	.	.	16a#X\JJ	.	16a#X\JJ	.	.	.	.	.	.	.	.	.
!	!	!	!LO:LB:g=original	!	!	!	!	!	!	!	!	!	!	!	!	!
=37	=37	=37	=37	=37	=37	=37	=37	=37	=37	=37	=37	=37	=37	=37	=37	=37
!	!	!	!	!	!	!	!	!	!	!	!	!	!	!	!LO:TX:a:t=1.	!
8D/L	6	.	8f#\L	.	16b|</LL	.	16b|</LL	.	.	.	1ryy	1ryy	1ryy	1ryy	1r	.
.	.	.	.	.	(16b/	.	(16b/	.	.	.	.	.	.	.	.	.
8D/	.	.	8f#\	.	16a#X/	.	16a#X/	.	.	.	.	.	.	.	.	.
.	.	.	.	.	16b/JJ)	.	16b/JJ)	.	.	.	.	.	.	.	.	.
8D/	.	.	8f#\	.	(16dd\LL	.	(16dd\LL	.	.	.	.	.	.	.	.	.
.	.	.	.	.	16b\)	.	16b\)	.	.	.	.	.	.	.	.	.
8D/J	.	.	8f#\J	.	16an\	.	16an\	.	.	.	.	.	.	.	.	.
.	.	.	.	.	16g#X\JJ	.	16g#X\JJ	.	.	.	.	.	.	.	.	.
!	!	!	!	!	!LO:LB:g=original	!	!	!	!	!	!	!	!	!	!	!
=-	=-	=-	=-	=-	=-	=-	=-	=-	=-	=-	=-	=-	=-	=-	=-	=-
8C#/L	6	.	8e\L	.	(8a/	.	(8a/	.	.	.	.	.	.	.	.	.
8BB/	6\	.	8d\	.	4g#X/)	.	4g#X/)	.	.	.	.	.	.	.	.	.
8BB/	.	.	8d\	.	.	.	.	.	.	.	.	.	.	.	.	.
8AA/J	.	.	8c#\J	.	8a|</	.	8a|</	.	.	.	.	.	.	.	.	.
=38	=38	=38	=38	=38	=38	=38	=38	=38	=38	=38	=38	=38	=38	=38	=38	=38
!	!	!LO:DY:b:t=for	!LO:TX:t=P:problem=mixed beam	!	!	!LO:DY:b:t=for	!	!LO:DY:b:t=for	!	!	!	!	!	!	!	!
8E\L	#	f	8E/L	.	(8.g#X/L	f	(8.b\L	f	.	.	1ryy	1ryy	1ryy	1ryy	8ee\L	.
8E\	.	.	8e\	.	.	.	.	.	.	.	.	.	.	.	16ee\L	.
.	.	.	.	.	32a/LL	.	32cc#\LL	.	.	.	.	.	.	.	16ee\JJ	.
.	.	.	.	.	32b/JJJ)	.	32dd\JJJ)	.	.	.	.	.	.	.	.	.
8E\	6 4	.	8e\	.	8.a/L	.	(8.cc#\L	.	.	.	.	.	.	.	8ee\L	.
8E\J	.	.	8e\J	.	.	.	.	.	.	.	.	.	.	.	8ee\J	.
.	.	.	.	.	(32b/LL	.	32dd\LL	.	.	.	.	.	.	.	.	.
.	.	.	.	.	32cc#/JJJ)	.	32ee\JJJ)	.	.	.	.	.	.	.	.	.
!	!	!	!	!	!	!	!LO:LB:g=original	!	!	!	!	!	!	!	!	!
=-	=-	=-	=-	=-	=-	=-	=-	=-	=-	=-	=-	=-	=-	=-	=-	=-
!	!	!	!	!	!	!	!	!	!	!	!	!	!	!	!LO:TX:a:t=t.	!
8E\L	5 #	.	8e\L	.	8.b\L	.	8.g#/L	.	.	.	.	.	.	.	2ee\	.
8E\	.	.	8e\	.	.	.	.	.	.	.	.	.	.	.	.	.
.	.	.	.	.	(32cc#\LL	.	(32a/LL	.	.	.	.	.	.	.	.	.
.	.	.	.	.	32dd\JJJ)	.	32b/JJJ)	.	.	.	.	.	.	.	.	.
8E\	6 4	.	8e\	.	8.cc#\L	.	(8.a/L	.	.	.	.	.	.	.	.	.
8E\J	.	.	8e\J	.	.	.	.	.	.	.	.	.	.	.	.	.
.	.	.	.	.	(32dd\LL	.	32b/LL	.	.	.	.	.	.	.	.	.
.	.	.	.	.	32ee\JJJ)	.	32cc#/JJJ)	.	.	.	.	.	.	.	.	.
=39	=39	=39	=39	=39	=39	=39	=39	=39	=39	=39	=39	=39	=39	=39	=39	=39
8E\L	5 #	.	8e\L	.	16g#X|</LL	.	16b|>\LL	.	.	.	1ryy	1ryy	1ryy	1ryy	8ee\L	.
.	.	.	.	.	(16g#/	.	(16b\	.	.	.	.	.	.	.	.	.
8E\	.	.	8e\	.	16a/	.	16cc#\	.	.	.	.	.	.	.	16ee\L	.
.	.	.	.	.	16b/JJ)	.	16dd\JJ)	.	.	.	.	.	.	.	16ee\JJ	.
8E\	6 4	.	8e\	.	16a|</LL	.	16cc#|>\LL	.	.	.	.	.	.	.	8ee\L	.
.	.	.	.	.	(16a/	.	(16cc#\	.	.	.	.	.	.	.	.	.
8E\J	.	.	8e\J	.	16b/	.	16dd\	.	.	.	.	.	.	.	8ee\J	.
.	.	.	.	.	16cc#/JJ)	.	16ee\JJ)	.	.	.	.	.	.	.	.	.
!	!	!	!	!	!	!	!	!	!	!	!	!	!	!	!LO:TX:a:t=t.	!
8E\L	5 #	.	8e\L	.	16b|</LL	.	16g#X|</LL	.	.	.	.	.	.	.	2ee\	.
.	.	.	.	.	(16b/	.	(16g#/	.	.	.	.	.	.	.	.	.
8E\	.	.	8e\	.	16cc#/	.	16a/	.	.	.	.	.	.	.	.	.
.	.	.	.	.	16dd/JJ)	.	16b/JJ)	.	.	.	.	.	.	.	.	.
8E\	6 4	.	8e\	.	16cc#|>\LL	.	16a|</LL	.	.	.	.	.	.	.	.	.
.	.	.	.	.	(16cc#\	.	(16a/	.	.	.	.	.	.	.	.	.
8E\J	.	.	8e\J	.	16dd\	.	16b/	.	.	.	.	.	.	.	.	.
.	.	.	.	.	16ee\JJ)	.	16cc#/JJ)	.	.	.	.	.	.	.	.	.
=40	=40	=40	=40	=40	=40	=40	=40	=40	=40	=40	=40	=40	=40	=40	=40	=40
*	*	*	*	*	*2\right	*	*	*	*	*	*	*	*	*	*	*
!	!	!	!	!	!	!	!	!	!	!	!	!	!	!	!LO:TX:a:t=1.	!
8D#X\L	7	.	8a\L	.	[2ff#\	.	8cc#\	.	0r	.	1ryy	1ryy	1ryy	1ryy	1r	.
!	!	!	!LO:TX:b:t=f	!	!	!	!	!	!	!	!	!	!	!	!	!
8D#\	6	.	8f#\	.	.	.	4b/	.	.	.	.	.	.	.	.	.
!	!	!	!LO:TX:b:t=f	!	!	!	!	!	!	!	!	!	!	!	!	!
8D#\	.	.	8f#\	.	.	.	.	.	.	.	.	.	.	.	.	.
!	!	!	!LO:TX:b:t=b	!	!	!	!	!	!	!	!	!	!	!	!	!
8D#\J	5	.	8b\J	.	.	.	8a/	.	.	.	.	.	.	.	.	.
.	.	.	.	.	.	.	8qqa/	.	.	.	.	.	.	.	.	.
8E\L	9 #	.	4.b\	.	8ff#\]	.	4.g#X/	.	.	.	.	.	.	.	.	.
8E\	8	.	.	.	4ee\	.	.	.	.	.	.	.	.	.	.	.
8E\	.	.	.	.	.	.	.	.	.	.	.	.	.	.	.	.
8G#X\J	6 5	.	8e\	.	8dd\	.	8bb\	.	.	.	.	.	.	.	.	.
=41	=41	=41	=41	=41	=41	=41	=41	=41	=41	=41	=41	=41	=41	=41	=41	=41
!	!	!	!	!	!LO:TUP:a:problem=klamra łukowa	!	!	!	!	!	!	!	!	!	!	!
8A\L	.	.	8e\L	.	24cc#\LL	.	(16aa\LL	.	.	.	1ryy	1ryy	1ryy	1ryy	8aa\	.
.	.	.	.	.	24b\	.	.	.	.	.	.	.	.	.	.	.
.	.	.	.	.	.	.	16ee\)	.	.	.	.	.	.	.	.	.
.	.	.	.	.	24cc#\JJ	.	.	.	.	.	.	.	.	.	.	.
8Dn\J	6	.	8f#\	.	16dd\LL	.	16ff#\	.	.	.	.	.	.	.	4aa\	.
.	.	.	.	.	16b\JJ	.	16dd\JJ	.	.	.	.	.	.	.	.	.
!LO:TX:t=P:problem=mixed beam	!	!	!	!	!	!	!	!	!	!	!	!	!	!	!	!
8E\L	6 4	.	8e\	.	8a/L	.	8cc#\L	.	.	.	.	.	.	.	.	.
!	!	!	!	!	!	!	!	!	!	!	!	!	!	!	!LO:TX:a:t=t.	!
8EE/J	5 #	.	8d\J	.	8g#Xt/J	.	8bT\J	.	.	.	.	.	.	.	8gg#X\	.
!	!	!	!	!	!LO:LB:g=original	!	!	!	!	!	!	!	!	!	!	!
=-	=-	=-	=-	=-	=-	=-	=-	=-	=-	=-	=-	=-	=-	=-	=-	=-
4AA/	.	.	4c#/	.	8a|</L	.	8a|</L	.	.	.	.	.	.	.	4aa\	.
!	!	!	!	!	!	!	!LO:TX:a:t=e	!	!	!	!	!	!	!	!	!
.	.	.	.	.	8e|</J	.	8e|</J	.	.	.	.	.	.	.	.	.
8A|>\L	.	.	4r	.	4A/	.	4A/	.	.	.	.	.	.	.	4r	.
8E|>\J	.	.	.	.	.	.	.	.	.	.	.	.	.	.	.	.
!LO:LB:g=original	!	!	!	!	!	!	!	!	!	!	!	!	!	!	!	!
=42	=42	=42	=42	=42	=42	=42	=42	=42	=42	=42	=42	=42	=42	=42	=42	=42
!	!	!LO:DY:b:t=piai	!	!LO:DY:b:t=pian	!	!	!	!	!	!	!	!	!	!	!	!
8AA/L	.	p	8c#/L	p	2r	.	16a|</LL	.	2AA/	Dis-	1ryy	1ryy	1ryy	1ryy	8r	.
!	!	!	!	!	!	!	!	!LO:DY:b:t=pia	!	!	!	!	!	!	!	!
.	.	.	.	.	.	.	(16a/	p	.	.	.	.	.	.	.	.
!	!	!	!	!	!	!	!	!	!	!	!	!	!	!	!	!LO:DY:b:t=pian
8AA/	.	.	8c#/	.	.	.	16g#X/	.	.	.	.	.	.	.	8a/	p
.	.	.	.	.	.	.	16a/JJ)	.	.	.	.	.	.	.	.	.
8AA/	.	.	8c#/	.	.	.	16b/LL	.	.	.	.	.	.	.	4a/	.
.	.	.	.	.	.	.	16a/	.	.	.	.	.	.	.	.	.
8AA/J	.	.	8c#/J	.	.	.	16cc#/	.	.	.	.	.	.	.	.	.
.	.	.	.	.	.	.	16a/JJ	.	.	.	.	.	.	.	.	.
*	*	*	*	*	*	*	*custos:cc	*	*	*	*	*	*	*	*	*
!	!	!	!	!	!	!	!LO:LB:g=original	!	!	!	!	!	!	!	!	!
=-	=-	=-	=-	=-	=-	=-	=-	=-	=-	=-	=-	=-	=-	=-	=-	=-
!	!	!	!	!	!	!LO:DY:b:t=pia&colon;	!	!	!	!	!	!	!	!	!	!
8AA/L	.	.	8A/L	.	16a|</LL	p	16cc#|>\LL	.	2C#/	-per-	.	.	.	.	8r	.
.	.	.	.	.	(16a/	.	(16cc#\	.	.	.	.	.	.	.	.	.
8AA/	.	.	8A/	.	16g#X/	.	16b\	.	.	.	.	.	.	.	8a/	.
.	.	.	.	.	16a/JJ)	.	16cc#\JJ)	.	.	.	.	.	.	.	.	.
8AA/	.	.	8A/	.	16b/LL	.	16dd\LL	.	.	.	.	.	.	.	4a/	.
.	.	.	.	.	16a/	.	16cc#\	.	.	.	.	.	.	.	.	.
8AA/J	.	.	8A/J	.	16cc#/	.	16ee\	.	.	.	.	.	.	.	.	.
.	.	.	.	.	16a/JJ	.	16cc#\JJ	.	.	.	.	.	.	.	.	.
!	!	!	!	!	!	!	!	!	!	!	!	!	!	!	!LO:LB:g=original	!
=43	=43	=43	=43	=43	=43	=43	=43	=43	=43	=43	=43	=43	=43	=43	=43	=43
8AA/L	7	.	8A/L	.	16cc#|>\LL	.	16ee|>\LL	.	4E\	-sit	1ryy	1ryy	1ryy	1ryy	4.gg\	.
.	.	.	.	.	(16cc#\	.	(16ee\	.	.	.	.	.	.	.	.	.
8AA/	.	.	8A/	.	16b\	.	16dd\	.	.	.	.	.	.	.	.	.
.	.	.	.	.	16cc#\JJ)	.	16ee\JJ)	.	.	.	.	.	.	.	.	.
8AA/	.	.	8A/	.	16dd\LL	.	16ff#\LL	.	4G\	Su-	.	.	.	.	.	.
.	.	.	.	.	16cc#\	.	16ee\	.	.	.	.	.	.	.	.	.
8AA/J	.	.	8A/J	.	16ee\	.	16gg\	.	.	.	.	.	.	.	8ee\	.
.	.	.	.	.	16cc#\JJ	.	16ee\JJ	.	.	.	.	.	.	.	.	.
!	!	!	!	!	!	!	!	!LO:DY:b:t=for	!	!	!	!	!	!	!LO:TX:t=P:problem=mixed beam	!
4DD/	.	.	4A/	.	8dd\L	.	16ff#\LL	f	8F#\	-per-	.	.	.	.	8ff#\L	.
.	.	.	.	.	.	.	16dd\	.	.	.	.	.	.	.	.	.
.	.	.	.	.	16cc#\L	.	16cc#\	.	8D\	-bos	.	.	.	.	8d/J	.
.	.	.	.	.	16b\JJ	.	16b\JJ	.	.	.	.	.	.	.	.	.
4r	.	.	4r	.	16a/LL	.	16a/LL	.	4r	.	.	.	.	.	4r	.
.	.	.	.	.	16g/	.	16g/	.	.	.	.	.	.	.	.	.
.	.	.	.	.	16f#/	.	16f#/	.	.	.	.	.	.	.	.	.
.	.	.	.	.	16e/JJ	.	16e/JJ	.	.	.	.	.	.	.	.	.
!	!	!	!LO:PB:g=original	!	!	!	!	!	!LO:LB:g=original	!	!	!	!	!	!	!
=44	=44	=44	=44	=44	=44	=44	=44	=44	=44	=44	=44	=44	=44	=44	=44	=44
8D\L	.	.	8F#/L	.	4d/	.	16d|>/LL	.	2D\	Dis-	1ryy	1ryy	1ryy	1ryy	8r	.
.	.	.	.	.	.	.	(16d/	.	.	.	.	.	.	.	.	.
8D\	.	.	8F#/	.	.	.	16c#/	.	.	.	.	.	.	.	8d/	.
.	.	.	.	.	.	.	16d/JJ)	.	.	.	.	.	.	.	.	.
!	!	!	!	!	!	!	!	!LO:DY:b:t=piano	!	!	!	!	!	!	!	!
8D\	.	.	8F#/	.	4r	.	16e/LL	p	.	.	.	.	.	.	4d/	.
.	.	.	.	.	.	.	16d/	.	.	.	.	.	.	.	.	.
8D\J	.	.	8F#/J	.	.	.	16f#/	.	.	.	.	.	.	.	.	.
.	.	.	.	.	.	.	16d/JJ	.	.	.	.	.	.	.	.	.
8D\L	.	.	8d\L	.	16d|</LL	.	16f#|</LL	.	2F#\	-per-	.	.	.	.	8r	.
.	.	.	.	.	(16d/	.	(16f#/	.	.	.	.	.	.	.	.	.
8D\	.	.	8d\	.	16c#/	.	16e/	.	.	.	.	.	.	.	8d/	.
.	.	.	.	.	16d/JJ)	.	16f#/JJ)	.	.	.	.	.	.	.	.	.
8D\	.	.	8d\	.	16e/LL	.	16g/LL	.	.	.	.	.	.	.	4d/	.
.	.	.	.	.	16d/	.	16f#/	.	.	.	.	.	.	.	.	.
8D\J	.	.	8d\J	.	16f#/	.	16a/	.	.	.	.	.	.	.	.	.
.	.	.	.	.	16d/JJ	.	16f#/JJ	.	.	.	.	.	.	.	.	.
=45	=45	=45	=45	=45	=45	=45	=45	=45	=45	=45	=45	=45	=45	=45	=45	=45
8D\L	.	.	8d\L	.	16f#|</LL	.	16a|</LL	.	4A\	-sit	1ryy	1ryy	1ryy	1ryy	8r	.
.	.	.	.	.	(16f#/	.	(16a/	.	.	.	.	.	.	.	.	.
8D\	.	.	8d\	.	16e/	.	16g/	.	.	.	.	.	.	.	8d/L	.
.	.	.	.	.	16f#/JJ)	.	16a/JJ)	.	.	.	.	.	.	.	.	.
8D\	7nr	.	8d\	.	16g/LL	.	16b/LL	.	4cn\	Su-	.	.	.	.	8d/	.
.	.	.	.	.	16f#/	.	16a/	.	.	.	.	.	.	.	.	.
8D\J	.	.	8d\J	.	16a/	.	16ccn/	.	.	.	.	.	.	.	8d/J	.
.	.	.	.	.	16f#/JJ	.	16a/JJ	.	.	.	.	.	.	.	.	.
*	*	*	*	*	*	*	*custos:b	*	*	*	*	*	*	*	*	*
!	!	!	!	!	!	!	!LO:LB:g=original	!	!	!	!	!	!	!	!	!
=-	=-	=-	=-	=-	=-	=-	=-	=-	=-	=-	=-	=-	=-	=-	=-	=-
!	!	!	!	!	!	!	!	!LO:DY:b:t=for	!	!	!	!	!	!	!	!
4GG/	.	.	4d\	.	16g/LL	.	16b/LL	f	8B\	-per-	.	.	.	.	4d/	.
.	.	.	.	.	16g/	.	16g/	.	.	.	.	.	.	.	.	.
.	.	.	.	.	16f#/	.	16f#/	.	8G\	-bos	.	.	.	.	.	.
.	.	.	.	.	16e/JJ	.	16e/JJ	.	.	.	.	.	.	.	.	.
4r	.	.	4r	.	16d/LL	.	16d/LL	.	4r	.	.	.	.	.	4r	.
.	.	.	.	.	16cn/	.	16cn/	.	.	.	.	.	.	.	.	.
.	.	.	.	.	16B/	.	16B/	.	.	.	.	.	.	.	.	.
.	.	.	.	.	16A/JJ	.	16A/JJ	.	.	.	.	.	.	.	.	.
!	!	!	!	!	!LO:LB:g=original	!	!	!	!	!	!	!	!	!	!	!
=46	=46	=46	=46	=46	=46	=46	=46	=46	=46	=46	=46	=46	=46	=46	=46	=46
!	!	!	!	!	!	!	!	!	!	!	!	!	!	!	!LO:TX:a:t=4.	!
8G\L	.	.	0r	.	4G/	.	4G/	.	8.B\L	Dis-	1ryy	1ryy	1ryy	1ryy	00r	.
8A\	.	.	.	.	.	.	.	.	.	.	.	.	.	.	.	.
.	.	.	.	.	.	.	.	.	16A\Jk	.	.	.	.	.	.	.
8B\	6	.	.	.	4r	.	4r	.	8.G\L	-per-	.	.	.	.	.	.
8G\J	.	.	.	.	.	.	.	.	.	.	.	.	.	.	.	.
.	.	.	.	.	.	.	.	.	16F#\Jk	.	.	.	.	.	.	.
.	.	.	.	.	.	.	.	.	8qqF#/	.	.	.	.	.	.	.
8Cn/L	.	.	.	.	2r	.	2r	.	2E\	-sit	.	.	.	.	.	.
16E/L	.	.	.	.	.	.	.	.	.	.	.	.	.	.	.	.
16D/JJ	.	.	.	.	.	.	.	.	.	.	.	.	.	.	.	.
8Cn/L	.	.	.	.	.	.	.	.	.	.	.	.	.	.	.	.
8BB/J	.	.	.	.	.	.	.	.	.	.	.	.	.	.	.	.
=47	=47	=47	=47	=47	=47	=47	=47	=47	=47	=47	=47	=47	=47	=47	=47	=47
!	!	!	!	!	!LO:TX:b:i:t=Volti Subito.	!	!	!	!	!	!	!	!	!	!	!
8AA/L	6 n	.	.	.	1r	.	1r	.	(16F#\LL	men-	1ryy	1ryy	1ryy	1ryy	.	.
.	.	.	.	.	.	.	.	.	16G\JJ)	.	.	.	.	.	.	.
8AA/	.	.	.	.	.	.	.	.	(16A\LL	-te	.	.	.	.	.	.
.	.	.	.	.	.	.	.	.	16B\JJ)	.	.	.	.	.	.	.
8AA/	5	.	.	.	.	.	.	.	8cn\	cor-	.	.	.	.	.	.
8AA/J	.	.	.	.	.	.	.	.	8E\	-dis	.	.	.	.	.	.
!LO:LB:g=original	!	!	!	!	!	!	!	!	!	!	!	!	!	!	!	!
=-	=-	=-	=-	=-	=-	=-	=-	=-	=-	=-	=-	=-	=-	=-	=-	=-
.	.	.	.	.	.	.	.	.	8qqF#/	.	.	.	.	.	.	.
8r	.	.	.	.	.	.	.	.	8E\	su-	.	.	.	.	.	.
8BB|</L	#	.	.	.	.	.	.	.	8D#X\	-i	.	.	.	.	.	.
8D#X|</	.	.	.	.	.	.	.	.	4r	.	.	.	.	.	.	.
8F#|</J	.	.	.	.	.	.	.	.	.	.	.	.	.	.	.	.
!	!	!	!	!	!LO:PB:g=original	!	!	!	!	!	!	!	!	!	!	!
=48	=48	=48	=48	=48	=48	=48	=48	=48	=48	=48	=48	=48	=48	=48	=48	=48
!LO:TX:t=P:problem=mixed beam	!	!	!	!	!	!	!	!	!	!	!	!	!	!	!	!
8B\L	#	.	8d#X\L	.	2r	.	16b|</LL	.	2BB/	fe-	1ryy	1ryy	1ryy	1ryy	.	.
.	.	.	.	.	.	.	(16b/	.	.	.	.	.	.	.	.	.
8BB/	.	.	8d#\	.	.	.	16a#X/	.	.	.	.	.	.	.	.	.
.	.	.	.	.	.	.	16b/JJ)	.	.	.	.	.	.	.	.	.
8BB/	.	.	8d#\	.	.	.	16cc#\LL	.	.	.	.	.	.	.	.	.
.	.	.	.	.	.	.	16b\	.	.	.	.	.	.	.	.	.
8BB/J	.	.	8d#\J	.	.	.	16dd#X\	.	.	.	.	.	.	.	.	.
.	.	.	.	.	.	.	16b\JJ	.	.	.	.	.	.	.	.	.
!	!	!	!	!	!	!	!	!	!LO:LB:g=original	!	!	!	!	!	!	!
=-	=-	=-	=-	=-	=-	=-	=-	=-	=-	=-	=-	=-	=-	=-	=-	=-
8BB/L	.	.	8B/L	.	16b|</LL	.	16dd#|>\LL	.	2D#X\	.	.	.	.	.	.	.
.	.	.	.	.	(16b/	.	(16dd#\	.	.	.	.	.	.	.	.	.
8BB/	.	.	8B/	.	16a#X/	.	16cc#\	.	.	.	.	.	.	.	.	.
.	.	.	.	.	16b/JJ)	.	16dd#\JJ)	.	.	.	.	.	.	.	.	.
8BB/	.	.	8B/	.	16cc#\LL	.	16ee\LL	.	.	.	.	.	.	.	.	.
.	.	.	.	.	16b\	.	16dd#\	.	.	.	.	.	.	.	.	.
8BB/J	.	.	8B/J	.	16dd#X\	.	16ff#\	.	.	.	.	.	.	.	.	.
.	.	.	.	.	16b\JJ	.	16dd#\JJ	.	.	.	.	.	.	.	.	.
=49	=49	=49	=49	=49	=49	=49	=49	=49	=49	=49	=49	=49	=49	=49	=49	=49
8r	.	.	8r	.	8r	.	8r	.	4F#\	-cit	1ryy	1ryy	1ryy	1ryy	.	.
8BB/L	7	.	8d#X\L	.	8ff#\L	.	8aa\L	.	.	.	.	.	.	.	.	.
8BB/	.	.	8d#\	.	8ff#\	.	8aa\	.	4A\	po-	.	.	.	.	.	.
8BB/J	.	.	8d#\J	.	8ff#\J	.	8aa\J	.	.	.	.	.	.	.	.	.
.	.	.	.	.	.	.	.	.	8qqA/	.	.	.	.	.	.	.
!	!	!	!	!	!LO:TX:t=P:problem=mixed beam	!	!LO:TX:t=P:problem=mixed beam	!	!	!	!	!	!	!	!	!
4E\	.	.	4B/	.	8ee\L	.	8gg\L	.	8.G\	-ten-	.	.	.	.	.	.
!	!	!	!	!	!	!	!	!LO:DY:b:t=for	!	!	!	!	!	!	!	!
.	.	.	.	.	16g/L	.	16b/L	f	.	.	.	.	.	.	.	.
.	.	.	.	.	16f#/JJ	.	16a/JJ	.	16F#\	-ti-	.	.	.	.	.	.
4r	.	.	4r	.	16e/LL	.	16g/LL	.	4E\	-am	.	.	.	.	.	.
.	.	.	.	.	16d/	.	16f#/	.	.	.	.	.	.	.	.	.
.	.	.	.	.	16c#/	.	16e/	.	.	.	.	.	.	.	.	.
.	.	.	.	.	16B/JJ	.	16d/JJ	.	.	.	.	.	.	.	.	.
!	!	!	!	!	!	!	!LO:LB:g=original	!	!	!	!	!	!	!	!	!
=50	=50	=50	=50	=50	=50	=50	=50	=50	=50	=50	=50	=50	=50	=50	=50	=50
8AA/L	.	.	8r	.	4A/	.	16c#|</LL	.	2AA/	in	1ryy	1ryy	1ryy	1ryy	8r	.
!	!	!	!	!	!	!	!	!LO:DY:b:t=pia&colon;	!	!	!	!	!	!	!	!
.	.	.	.	.	.	.	(16a/	p	.	.	.	.	.	.	.	.
8AA/	.	.	8c#/L	.	.	.	16g#X/	.	.	.	.	.	.	.	16a/LL	.
.	.	.	.	.	.	.	16a/JJ)	.	.	.	.	.	.	.	16a/JJ	.
8AA/	.	.	8c#/	.	4r	.	16b/LL	.	.	.	.	.	.	.	8a/L	.
.	.	.	.	.	.	.	16a/	.	.	.	.	.	.	.	.	.
8AA/J	.	.	8c#/J	.	.	.	16cc#/	.	.	.	.	.	.	.	8a/J	.
.	.	.	.	.	.	.	16a/JJ	.	.	.	.	.	.	.	.	.
8AA/L	.	.	8A/L	.	16a|</LL	.	16cc#|>\LL	.	2C#/	bra-	.	.	.	.	8r	.
.	.	.	.	.	(16a/	.	(16cc#\	.	.	.	.	.	.	.	.	.
8AA/	.	.	8A/	.	16g#X/	.	16b\	.	.	.	.	.	.	.	16a/LL	.
.	.	.	.	.	16a/JJ)	.	16cc#\JJ)	.	.	.	.	.	.	.	16a/JJ	.
8AA/	.	.	8A/	.	16b/LL	.	16dd\LL	.	.	.	.	.	.	.	8a/L	.
.	.	.	.	.	16a/	.	16cc#\	.	.	.	.	.	.	.	.	.
8AA/J	.	.	8A/J	.	16cc#/	.	16ee\	.	.	.	.	.	.	.	8a/J	.
.	.	.	.	.	16a/JJ	.	16cc#\JJ	.	.	.	.	.	.	.	.	.
=51	=51	=51	=51	=51	=51	=51	=51	=51	=51	=51	=51	=51	=51	=51	=51	=51
8r	.	.	8r	.	8r	.	8r	.	4E\	.	1ryy	1ryy	1ryy	1ryy	8r	.
8AA/L	7	.	8c#/L	.	8ee\L	.	8gg\L	.	.	.	.	.	.	.	16a/LL	.
.	.	.	.	.	.	.	.	.	.	.	.	.	.	.	16a/JJ	.
8AA/	.	.	8c#/	.	8ee\	.	8gg\	.	8.G\	-chi-	.	.	.	.	8a/L	.
8AA/J	.	.	8c#/J	.	8ee\J	.	8gg\J	.	.	.	.	.	.	.	8a/J	.
.	.	.	.	.	.	.	.	.	16G\	-o	.	.	.	.	.	.
!	!	!	!	!	!	!	!	!	!	!	!	!	!	!	!LO:LB:g=original	!
=-	=-	=-	=-	=-	=-	=-	=-	=-	=-	=-	=-	=-	=-	=-	=-	=-
!	!	!LO:DY:b:t=for	!	!	!	!	!	!	!	!	!	!	!	!	!	!
8D\L	.	f	4A/	.	4dd\	.	4ff#\	.	(16F#\LL	su-	.	.	.	.	4a/	.
.	.	.	.	.	.	.	.	.	16E\JJ)	.	.	.	.	.	.	.
16E\L	.	.	.	.	.	.	.	.	8D\	-o	.	.	.	.	.	.
16F#\JJ	.	.	.	.	.	.	.	.	.	.	.	.	.	.	.	.
16G\LL	.	.	4r	.	4r	.	4r	.	4r	.	.	.	.	.	4r	.
16A\	.	.	.	.	.	.	.	.	.	.	.	.	.	.	.	.
16B\	.	.	.	.	.	.	.	.	.	.	.	.	.	.	.	.
16c#\JJ	.	.	.	.	.	.	.	.	.	.	.	.	.	.	.	.
=52	=52	=52	=52	=52	=52	=52	=52	=52	=52	=52	=52	=52	=52	=52	=52	=52
!	!	!	!	!	!	!	!	!	!	!	!	!	!	!	!	!LO:DY:b:t=for&colon;
4d\	.	.	8r	.	8r	.	8r	.	4d|>\	Dis-	1ryy	1ryy	1ryy	1ryy	4dd|>\	f
.	.	.	8a\	.	8dd\	.	8ff#\	.	.	.	.	.	.	.	.	.
.	.	.	.	.	8qqdd/	.	8qqff#/	.	.	.	.	.	.	.	.	.
8r	.	.	4a\	.	4cc#\	.	4ee\	.	4A|>\	-per-	.	.	.	.	4a|</	.
!	!	!LO:DY:b:t=pian	!	!	!	!	!	!	!	!	!	!	!	!	!	!
8A\	.	p	.	.	.	.	.	.	.	.	.	.	.	.	.	.
*custos:B	*	*	*	*	*	*	*	*	*	*	*	*	*	*	*	*
!LO:LB:g=original	!	!	!	!	!	!	!	!	!	!	!	!	!	!	!	!
=-	=-	=-	=-	=-	=-	=-	=-	=-	=-	=-	=-	=-	=-	=-	=-	=-
4B\	.	.	8r	.	8r	.	8r	.	4B|>\	-sit	.	.	.	.	2r	.
.	.	.	8f#\	.	8b/	.	8dd\	.	.	.	.	.	.	.	.	.
.	.	.	.	.	8qqb/	.	8qqdd/	.	.	.	.	.	.	.	.	.
8r	.	.	4f#\	.	4a/	.	4cc#\	.	4F#|>\	su-	.	.	.	.	.	.
8F#\	.	.	.	.	.	.	.	.	.	.	.	.	.	.	.	.
!	!	!	!	!	!LO:LB:g=original	!	!	!	!	!	!	!	!	!	!	!
=53	=53	=53	=53	=53	=53	=53	=53	=53	=53	=53	=53	=53	=53	=53	=53	=53
8G\L	.	.	8d\L	.	4.g/	.	4b/	.	8G\	-per-	1ryy	1ryy	1ryy	1ryy	2r	.
8F#\	2	.	8B\J	.	.	.	.	.	8F#\	-bos	.	.	.	.	.	.
8E\	6	.	8A/L	.	.	.	(8cc#\L	.	8E\	men-	.	.	.	.	.	.
8D\J	.	.	8A/J	.	8f#/	.	8dd\J)	.	8D\	-te	.	.	.	.	.	.
!	!	!	!LO:LB:g=original	!	!	!	!	!	!LO:LB:g=original	!	!	!	!	!	!	!
=-	=-	=-	=-	=-	=-	=-	=-	=-	=-	=-	=-	=-	=-	=-	=-	=-
!	!	!	!	!	!LO:TX:t=P:problem=mixed beam	!	!	!	!	!	!	!	!	!	!	!LO:DY:b:t=pian
8AA/L	.	.	8A/L	.	8e|</L	.	8cc#|>\L	.	2A\	cor-	.	.	.	.	4ee\	p
8AA/	.	.	8A/	.	(8cc#\	.	(8ee\	.	.	.	.	.	.	.	.	.
!	!	!	!	!	!	!	!	!	!	!	!	!	!	!	!LO:TX:a:t=t.	!
8AA/	6 4	.	8A/	.	8dd\	.	8ff#\	.	.	.	.	.	.	.	8.ff#\L	.
8AA/J	7 3	.	8A/J	.	8ee\J)	.	8gg\J)	.	.	.	.	.	.	.	.	.
.	.	.	.	.	.	.	.	.	.	.	.	.	.	.	16gg\Jk	.
=54	=54	=54	=54	=54	=54	=54	=54	=54	=54	=54	=54	=54	=54	=54	=54	=54
8AA/L	6 4	.	8A/L	.	16dd|>\LL	.	16ff#|>\LL	.	2A\	-dis	1ryy	1ryy	1ryy	1ryy	4ff#\	.
.	.	.	.	.	(16cc#\	.	(16cc#\	.	.	.	.	.	.	.	.	.
8AA/	.	.	8A/	.	16b\	.	16b\	.	.	.	.	.	.	.	.	.
.	.	.	.	.	16a\JJ)	.	16a\JJ)	.	.	.	.	.	.	.	.	.
8AA/	.	.	8A/	.	16a\LL	.	16a/LL	.	.	.	.	.	.	.	4r	.
.	.	.	.	.	16a\	.	16a/	.	.	.	.	.	.	.	.	.
8AA/J	.	.	8A/J	.	16a\	.	16a/	.	.	.	.	.	.	.	.	.
.	.	.	.	.	16a\JJ	.	16a/JJ	.	.	.	.	.	.	.	.	.
8AA/L	6 4	.	8A/L	.	(4dd\	.	(4ff#\	.	2A\	Su-	.	.	.	.	4ff#\	.
8AA/	.	.	8A/	.	.	.	.	.	.	.	.	.	.	.	.	.
!	!	!	!	!	!	!	!	!	!	!	!	!	!	!	!LO:TX:a:t=t.	!
8AA/	7 5	.	8A/	.	8ee\L)	.	8gg\L)	.	.	.	.	.	.	.	8.gg\L	.
8AA/J	8 6	.	8A/J	.	8ff#|>\J	.	8aa|>\J	.	.	.	.	.	.	.	.	.
.	.	.	.	.	.	.	.	.	.	.	.	.	.	.	16aa\Jk	.
!	!	!	!	!	!	!	!LO:LB:g=original	!	!	!	!	!	!	!	!	!
=55	=55	=55	=55	=55	=55	=55	=55	=55	=55	=55	=55	=55	=55	=55	=55	=55
8AA/L	7 3	.	8A/L	.	16ee|>\LL	.	16gg|>\LL	.	2A\	-i	1ryy	1ryy	1ryy	1ryy	4gg\	.
.	.	.	.	.	(16cc#\	.	(16cc#\	.	.	.	.	.	.	.	.	.
8AA/	.	.	8A/	.	16b\	.	16b\	.	.	.	.	.	.	.	.	.
.	.	.	.	.	16a\JJ)	.	16a\JJ)	.	.	.	.	.	.	.	.	.
8AA/	.	.	8A/	.	16a/LL	.	16a/LL	.	.	.	.	.	.	.	4r	.
.	.	.	.	.	16a/	.	16a/	.	.	.	.	.	.	.	.	.
8AA/J	.	.	8A/J	.	16a/	.	16a/	.	.	.	.	.	.	.	.	.
.	.	.	.	.	16a/JJ	.	16a/JJ	.	.	.	.	.	.	.	.	.
8AA/L	5 3	.	8A/L	.	(4cc#\	.	(4ee\	.	4.A\	men-	.	.	.	.	4ee\	.
8AA/	.	.	8A/	.	.	.	.	.	.	.	.	.	.	.	.	.
!	!	!	!	!	!	!	!	!	!	!	!	!	!	!	!LO:TX:a:t=t.	!
8AA/	6 4	.	8A/	.	8dd\L)	.	8ff#\L)	.	.	.	.	.	.	.	8.ff#\L	.
8AA/J	7 3	.	8A/J	.	8ee|>\J	.	8gg|>\J	.	8A\	-te	.	.	.	.	.	.
.	.	.	.	.	.	.	.	.	.	.	.	.	.	.	16gg\Jk	.
=56	=56	=56	=56	=56	=56	=56	=56	=56	=56	=56	=56	=56	=56	=56	=56	=56
[4D\	.	.	4A/	.	16dd\LL	.	(16ff#\LL	.	[4D/	cor-	1ryy	1ryy	1ryy	1ryy	4ff#\	.
.	.	.	.	.	16cc#\	.	16ee\	.	.	.	.	.	.	.	.	.
.	.	.	.	.	16dd\	.	16ff#\)	.	.	.	.	.	.	.	.	.
.	.	.	.	.	16ee\JJ	.	16gg\JJ	.	.	.	.	.	.	.	.	.
16D\LL]	.	.	16f#\LL	.	[4ff#\	.	[4aa\	.	16D/LL]	.	.	.	.	.	4r	.
16C#\	.	.	16e\	.	.	.	.	.	16C#/	.	.	.	.	.	.	.
16D\	.	.	16f#\	.	.	.	.	.	16D/	.	.	.	.	.	.	.
16E\JJ	.	.	16g\JJ	.	.	.	.	.	16E/JJ	.	.	.	.	.	.	.
!LO:TX:t=P:problem=mixed beam	!	!	!LO:TX:t=P:problem=mixed beam	!	!	!	!	!	!	!	!	!	!	!	!	!
8F#\L	6	.	8a\L	.	8ff#\L]	.	8aa\L]	.	8F#\	.	.	.	.	.	2r	.
8G\	.	.	8b\	.	8ee\	.	8gg\	.	8G\	-dis	.	.	.	.	.	.
!	!	!	!	!	!	!	!	!	!LO:TX:t=P:problem=mixed beam	!	!	!	!	!	!	!
8A\	6 4	.	8a\	.	8dd\	.	8ff#\	.	(>8A\L	Su-	.	.	.	.	.	.
8AA/J	5 3	.	8A/J	.	8cc#\J	.	8ee\J	.	8AA/J)	.	.	.	.	.	.	.
=57	=57	=57	=57	=57	=57	=57	=57	=57	=57	=57	=57	=57	=57	=57	=57	=57
!	!	!	!	!	!	!	!	!	!	!	!	!	!	!	!	!LO:DY:b:t=for
4D/	.	.	4A/	.	[4d/	.	(16dd\LL	.	4D/	-i	1ryy	1ryy	1ryy	1ryy	(16ff#\LL	f
.	.	.	.	.	.	.	16cc#\	.	.	.	.	.	.	.	16ee\	.
.	.	.	.	.	.	.	16dd\)	.	.	.	.	.	.	.	16ff#\	.
.	.	.	.	.	.	.	16ee\JJ	.	.	.	.	.	.	.	16gg\JJ)	.
4r	.	.	16f#\LL	.	16d/LL]	.	[4ff#\	.	4r	.	.	.	.	.	[4aa\	.
.	.	.	16e\	.	16c#/	.	.	.	.	.	.	.	.	.	.	.
.	.	.	16f#\	.	16d/	.	.	.	.	.	.	.	.	.	.	.
.	.	.	16g\JJ	.	16e/JJ	.	.	.	.	.	.	.	.	.	.	.
!	!	!	!LO:TX:t=P:problem=mixed beam	!	!	!	!	!	!	!	!	!	!	!	!	!
2r	.	.	8a\L	.	8f#/L	.	8ff#\L]	.	2r	.	.	.	.	.	8aa\L]	.
.	.	.	8b\	.	8g/	.	8ee\	.	.	.	.	.	.	.	8gg\	.
.	.	.	8a\	.	8a/	.	8dd\	.	.	.	.	.	.	.	8ff#\	.
.	.	.	8A/J	.	8A/J	.	8cc#\J	.	.	.	.	.	.	.	8ee\J	.
*	*	*	*	*	*custos:ff	*	*	*	*	*	*	*	*	*	*custos:ee	*
!LO:LB:g=original	!	!	!	!	!LO:LB:g=original	!	!	!	!	!	!	!	!	!	!LO:LB:g=original	!
=58	=58	=58	=58	=58	=58	=58	=58	=58	=58	=58	=58	=58	=58	=58	=58	=58
4D|</	.	.	4a|>\	.	4d/ 4a 4ff#	.	4d|>/ 4a 4ff#	.	16F#\LL	men-	1ryy	1ryy	1ryy	1ryy	4ff#\	.
.	.	.	.	.	.	.	.	.	16A\	.	.	.	.	.	.	.
.	.	.	.	.	.	.	.	.	16G\	.	.	.	.	.	.	.
.	.	.	.	.	.	.	.	.	16F#\JJ	.	.	.	.	.	.	.
!	!	!	!	!	!	!	!	!	!	!	!	!	!	!	!LO:TX:a:t=t.	!LO:DY:b:t=pian
4AA|</	7	.	4a|>\	.	4a/ 4cc# 4ee	.	4a|>/ 4cc# 4ee	.	16G\LL	.	.	.	.	.	4ee\	p
.	.	.	.	.	.	.	.	.	16A\	.	.	.	.	.	.	.
.	.	.	.	.	.	.	.	.	16B\	.	.	.	.	.	.	.
.	.	.	.	.	.	.	.	.	16c#\JJ	.	.	.	.	.	.	.
4DD/	.	.	4a|>\	.	4d/ 4a 4ff#	.	4d|>/ 4a 4ff#	.	8d\	.	.	.	.	.	4ff#\	.
.	.	.	.	.	.	.	.	.	8A\	-te	.	.	.	.	.	.
4r	.	.	4r	.	4r	.	4r	.	8F#\	cor-	.	.	.	.	4r	.
.	.	.	.	.	.	.	.	.	8D\	-dis	.	.	.	.	.	.
!	!	!	!	!	!	!	!	!	!LO:PB:g=original	!	!	!	!	!	!	!
=59	=59	=59	=59	=59	=59	=59	=59	=59	=59	=59	=59	=59	=59	=59	=59	=59
8G\L	6	.	8b\L	.	16gg|>\LL	.	16bb|>\LL	.	(2GG/	su-	1ryy	1ryy	1ryy	1ryy	2r	.
.	.	.	.	.	(16gg\	.	(16bb\	.	.	.	.	.	.	.	.	.
8G\	.	.	8b\	.	16ff#\	.	16aa\	.	.	.	.	.	.	.	.	.
.	.	.	.	.	16ee\JJ)	.	16gg\JJ)	.	.	.	.	.	.	.	.	.
8G\	.	.	8b\	.	16gg|>\LL	.	16bb|>\LL	.	.	.	.	.	.	.	.	.
.	.	.	.	.	(16gg\	.	(16bb\	.	.	.	.	.	.	.	.	.
8G\J	.	.	8b\J	.	16ff#\	.	16aa\	.	.	.	.	.	.	.	.	.
.	.	.	.	.	16ee\JJ)	.	16gg\JJ)	.	.	.	.	.	.	.	.	.
!LO:TX:t=P:problem=mixed beam	!	!	!	!	!	!	!	!	!	!	!	!	!	!	!	!
8A\L	6 4	.	8a\L	.	8dd\L	.	8ff#\L	.	2AAT/)	.	.	.	.	.	4ff#\	.
8A\	.	.	8a\	.	8dd\	.	8ff#\	.	.	.	.	.	.	.	.	.
!	!	!	!	!	!	!	!	!	!	!	!	!	!	!	!LO:TX:a:t=t.	!
8AA\	7 3	.	8a\	.	8cc#\	.	8ee\	.	.	.	.	.	.	.	8.ee\L	.
8AA\J	.	.	8a\J	.	8cc#\J	.	8ee\J	.	.	.	.	.	.	.	.	.
.	.	.	.	.	.	.	.	.	.	.	.	.	.	.	16aa\Jk	.
!	!	!	!	!	!	!	!LO:LB:g=original	!	!	!	!	!	!	!	!	!
=60	=60	=60	=60	=60	=60	=60	=60	=60	=60	=60	=60	=60	=60	=60	=60	=60
!	!	!	!	!	!	!LO:DY:b:t=poco forte	!	!LO:DY:b:t=poco for	!	!	!	!	!	!	!	!
4BB|</	5	.	4f#\	.	4dd|>\	f	4dd|>\	f	2BB/	-i	1ryy	1ryy	1ryy	1ryy	4ff#\	.
4r	.	.	4d\	.	4dd|>\	.	4ff#|>\	.	.	.	.	.	.	.	4r	.
4AA|</	4 2	.	4r	.	8r	.	8r	.	4r	.	.	.	.	.	16ff#\LL	.
.	.	.	.	.	.	.	.	.	.	.	.	.	.	.	16ee\J	.
.	.	.	.	.	8dd\L	.	8ff#\L	.	.	.	.	.	.	.	8ff#\J	.
4r	.	.	4B/	.	8dd\	.	8ff#\	.	8d\	men-	.	.	.	.	8r	.
.	.	.	.	.	8dd\J	.	8ff#\J	.	8d\	-te	.	.	.	.	16ff#\LL	.
.	.	.	.	.	.	.	.	.	.	.	.	.	.	.	16ee\JJ	.
=61	=61	=61	=61	=61	=61	=61	=61	=61	=61	=61	=61	=61	=61	=61	=61	=61
4GG#X|</	7 5	.	4r	.	8r	.	8r	.	4.G#Xt\	cor-	1ryy	1ryy	1ryy	1ryy	8ff#\L	.
.	.	.	.	.	16dd\LL	.	16ff#\LL	.	.	.	.	.	.	.	8ff#\J	.
.	.	.	.	.	16cc#\JJ	.	16ee\JJ	.	.	.	.	.	.	.	.	.
4r	.	.	4G#X/	.	8dd\L	.	8ff#\L	.	.	.	.	.	.	.	4r	.
.	.	.	.	.	8dd\J	.	8ff#\J	.	8G#\	-dis	.	.	.	.	.	.
2AA;</	6 4	.	2A;>/	.	8d/	.	8f#/	.	2A;>\	Su-	.	.	.	.	4a|</	.
.	5 3	.	.	.	8r	.	8r	.	.	.	.	.	.	.	.	.
!	!	!	!	!	!	!	!	!	!	!	!	!	!	!	!LO:TX:b:i:t=Volti subito.	!
.	7	.	.	.	4r;>	.	4r;>	.	.	.	.	.	.	.	4r;>	.
!	!	!	!LO:LB:g=original	!	!	!	!	!	!	!	!	!	!	!	!LO:PB:g=original	!
=62	=62	=62	=62	=62	=62	=62	=62	=62	=62	=62	=62	=62	=62	=62	=62	=62
!	!	!LO:DY:b:t=for	!	!LO:DY:b:t=for&colon;	!	!LO:DY:b:t=for	!	!LO:DY:b:t=for	!	!	!	!	!	!	!	!LO:DY:b:t=for
8D\L	.	f	8f#\L	f	16dd|>\LL	f	16dd|>\LL	f	2D/	-i	1ryy	1ryy	1ryy	1ryy	(4dd\	f
.	.	.	.	.	(16dd\	.	(16dd\	.	.	.	.	.	.	.	.	.
8D\	.	.	8f#\	.	16cc#\	.	16cc#\	.	.	.	.	.	.	.	.	.
.	.	.	.	.	16dd\JJ)	.	16dd\JJ)	.	.	.	.	.	.	.	.	.
8D\	.	.	8f#\	.	16ff#\LL	.	16ff#\LL	.	.	.	.	.	.	.	8ff#\L)	.
.	.	.	.	.	16dd\	.	16dd\	.	.	.	.	.	.	.	.	.
8D\J	4 2	.	8e\J	.	16bb\	.	16bb\	.	.	.	.	.	.	.	8gg#X|>\J	.
.	.	.	.	.	16gg#X\JJ	.	16gg#X\JJ	.	.	.	.	.	.	.	.	.
!	!	!	!	!	!	!	!	!	!	!	!	!	!	!	!LO:TX:t=P:problem=mixed beam	!
16C#/LL	6	.	16e\LL	.	16aa|>\LL	.	16aa|>\LL	.	2r	.	.	.	.	.	8aa\L	.
16AA/	.	.	16c#\	.	(16cc#\	.	(16cc#\	.	.	.	.	.	.	.	.	.
16BB/	.	.	16d\	.	16b\	.	16b\	.	.	.	.	.	.	.	16a/L	.
16C#/JJ	.	.	16e\JJ	.	16a\JJ)	.	16a\JJ)	.	.	.	.	.	.	.	16a/JJ	.
16D\LL	.	.	16f#\LL	.	16a/LL	.	16a/LL	.	.	.	.	.	.	.	4a/	.
16E\	.	.	16g#X\	.	16a/	.	16a/	.	.	.	.	.	.	.	.	.
16F#\	.	.	16a\	.	16a/	.	16a/	.	.	.	.	.	.	.	.	.
16G#X\JJ	.	.	16b\JJ	.	16a/JJ	.	16a/JJ	.	.	.	.	.	.	.	.	.
!LO:LB:g=original	!	!	!	!	!LO:LB:g=original	!	!	!	!	!	!	!	!	!	!	!
=63	=63	=63	=63	=63	=63	=63	=63	=63	=63	=63	=63	=63	=63	=63	=63	=63
!LO:TX:t=P:problem=mixed beam	!	!	!	!	!	!	!	!	!	!	!	!	!	!	!	!
8A\L	.	.	8a\L	.	(4cc#\	.	4ee\	.	00r	.	1ryy	1ryy	1ryy	1ryy	(4ee\	.
8A\	.	.	8a\	.	.	.	.	.	.	.	.	.	.	.	.	.
8AA/	6 4	.	8a\	.	8dd\L)	.	(8ff#\L	.	.	.	.	.	.	.	8ff#\L)	.
8AA/J	7 3	.	8a\J	.	8ee|>\J	.	8ggn|>\J)	.	.	.	.	.	.	.	8ggnX|>\J	.
!	!	!	!	!	!	!	!	!	!	!	!	!	!	!	!LO:TX:t=P:problem=mixed beam	!
8AA/L	6 4	.	8a\L	.	16dd|>\LL	.	16ff#|>\LL	.	.	.	.	.	.	.	8ff#\L	.
.	.	.	.	.	(16cc#\	.	(16cc#\	.	.	.	.	.	.	.	.	.
16BB/L	.	.	16d\L	.	16b\	.	16b\	.	.	.	.	.	.	.	16a/L	.
16C#/JJ	.	.	16e\JJ	.	16a\JJ)	.	16a\JJ)	.	.	.	.	.	.	.	16a/JJ	.
16D\LL	.	.	16f#\LL	.	16a/LL	.	16a/LL	.	.	.	.	.	.	.	4a/	.
16E\	.	.	16g#X\	.	16a/	.	16a/	.	.	.	.	.	.	.	.	.
16F#\	.	.	16a\	.	16a/	.	16a/	.	.	.	.	.	.	.	.	.
16G#X\JJ	.	.	16b\JJ	.	16a/JJ	.	16a/JJ	.	.	.	.	.	.	.	.	.
=64	=64	=64	=64	=64	=64	=64	=64	=64	=64	=64	=64	=64	=64	=64	=64	=64
!LO:TX:t=P:problem=mixed beam	!	!	!	!	!	!	!	!	!	!	!	!	!	!	!	!
8A\L	5 3	.	8a\L	.	(4cc#\	.	(4ee\	.	.	.	1ryy	1ryy	1ryy	1ryy	(4ee\	.
8A\	.	.	8a\	.	.	.	.	.	.	.	.	.	.	.	.	.
8AA/	6 4	.	8a\	.	8dd\L)	.	8ff#\L)	.	.	.	.	.	.	.	8ff#\L)	.
8AA/J	7 3	.	8a\J	.	8ee|>\J	.	8gg|>\J	.	.	.	.	.	.	.	8gg|>\J	.
[4D\	.	.	4a\	.	(16dd\LL	.	(16ff#\LL	.	.	.	.	.	.	.	4ff#\	.
.	.	.	.	.	16cc#\	.	16ee\	.	.	.	.	.	.	.	.	.
.	.	.	.	.	16dd\	.	16ff#\)	.	.	.	.	.	.	.	.	.
.	.	.	.	.	16ee\JJ)	.	16gg\JJ	.	.	.	.	.	.	.	.	.
16D\LL]	.	.	16f#\LL	.	[4ff#\	.	[4aa\	.	.	.	.	.	.	.	4r	.
16C#\	.	.	16e\	.	.	.	.	.	.	.	.	.	.	.	.	.
16D\	.	.	16f#\	.	.	.	.	.	.	.	.	.	.	.	.	.
16E\JJ	.	.	16g\JJ	.	.	.	.	.	.	.	.	.	.	.	.	.
!	!	!	!	!	!	!	!LO:LB:g=original	!	!	!	!	!	!	!	!	!
=65	=65	=65	=65	=65	=65	=65	=65	=65	=65	=65	=65	=65	=65	=65	=65	=65
!LO:TX:t=P:problem=mixed beam	!	!	!LO:TX:t=P:problem=mixed beam	!	!	!	!	!	!	!	!	!	!	!	!	!
8F#\L	6	.	8a\L	.	8ff#\L]	.	8aa\L]	.	.	.	1ryy	1ryy	1ryy	1ryy	2r	.
8G\	.	.	8b\	.	8ee|>\	.	8gg|>\	.	.	.	.	.	.	.	.	.
8A\	6 4	.	8a\	.	8dd|>\	.	8ff#|>\	.	.	.	.	.	.	.	.	.
8AA/J	5 3	.	8A/J	.	8cc#|>\J	.	8ee|>\J	.	.	.	.	.	.	.	.	.
!	!	!	!	!	!	!LO:DY:b:t=pia	!	!	!	!	!	!	!	!	!	!
2r	.	.	[4d\	.	4a/	p	(16dd\LL	.	.	.	.	.	.	.	(16ff#\LL	.
.	.	.	.	.	.	.	16cc#\	.	.	.	.	.	.	.	16ee\	.
.	.	.	.	.	.	.	16dd\)	.	.	.	.	.	.	.	16ff#\	.
.	.	.	.	.	.	.	16ee\JJ	.	.	.	.	.	.	.	16gg\JJ)	.
!	!	!	!	!	!	!	!	!LO:DY:b:t=po.	!	!	!	!	!	!	!	!
.	.	.	16d\LL]	.	(16f#/LL	.	[4ff#\	p	.	.	.	.	.	.	[4aa\	.
.	.	.	16c#\	.	16e/	.	.	.	.	.	.	.	.	.	.	.
.	.	.	16d\	.	16f#/	.	.	.	.	.	.	.	.	.	.	.
.	.	.	16e\JJ	.	16g/JJ)	.	.	.	.	.	.	.	.	.	.	.
=66	=66	=66	=66	=66	=66	=66	=66	=66	=66	=66	=66	=66	=66	=66	=66	=66
!	!	!	!LO:TX:t=P:problem=mixed beam	!	!	!	!	!	!	!	!	!	!	!	!	!
2r	.	.	8f#\L	.	8a/L	.	8ff#\L]	.	.	.	1ryy	1ryy	1ryy	1ryy	8aa\L]	.
.	.	.	8g\	.	8b/	.	8ee|>\	.	.	.	.	.	.	.	8gg|>\	.
.	.	.	8a\	.	8a/	.	8dd|>\	.	.	.	.	.	.	.	8ff#|>\	.
.	.	.	8A/J	.	8A/J	.	8cc#|>\J	.	.	.	.	.	.	.	8ee|>\J	.
[4D\	.	.	4A/	.	(16dd\LL	.	16ff#\LL	.	.	.	.	.	.	.	(16ff#\LL	.
.	.	.	.	.	16cc#\	.	16ee\	.	.	.	.	.	.	.	16ee\	.
.	.	.	.	.	16dd\	.	16ff#\	.	.	.	.	.	.	.	16ff#\	.
.	.	.	.	.	16ee\JJ)	.	16gg\JJ	.	.	.	.	.	.	.	16gg\JJ)	.
!	!	!	!	!	!	!	!	!LO:DY:b:t=for	!	!	!	!	!	!	!	!
16D\LL]	.	.	16f#\LL	.	[4ff#\	.	[4aa\	f	.	.	.	.	.	.	[4aa\	.
16C#\	.	.	16e\	.	.	.	.	.	.	.	.	.	.	.	.	.
16D\	.	.	16f#\	.	.	.	.	.	.	.	.	.	.	.	.	.
16E\JJ	.	.	16g\JJ	.	.	.	.	.	.	.	.	.	.	.	.	.
!	!	!	!	!	!	!	!	!	!	!	!	!	!	!	!LO:LB:g=original	!
=67	=67	=67	=67	=67	=67	=67	=67	=67	=67	=67	=67	=67	=67	=67	=67	=67
8F#\L	6	.	8a\L	.	8ff#\L]	.	8aa\L]	.	00r	.	1ryy	1ryy	1ryy	1ryy	8aa\L]	.
8G\	.	.	8b\	.	8ee|>\	.	8gg|>\	.	.	.	.	.	.	.	8gg\	.
8A\	6 4	.	8a\	.	8dd|>\	.	8ff#|>\	.	.	.	.	.	.	.	8ff#\	.
8G\J	6 4	.	8a\J	.	8cc#|>\J	.	8ee|>\J	.	.	.	.	.	.	.	8ee\J	.
8F#\L	6	.	4.a\	.	4.dd\	.	(16dd\LL	.	.	.	.	.	.	.	(16dd\LL	.
.	.	.	.	.	.	.	16ee\	.	.	.	.	.	.	.	16ee\	.
8E\	.	.	.	.	.	.	16ff#\)	.	.	.	.	.	.	.	16ff#\	.
.	.	.	.	.	.	.	16gg|>\JJ	.	.	.	.	.	.	.	16gg\JJ)	.
8F#\	.	.	.	.	.	.	8aa\L	.	.	.	.	.	.	.	8aa\L	.
8G\J	.	.	8b\	.	16dd\LL	.	8gg\J	.	.	.	.	.	.	.	8gg\J	.
*custos:A	*	*	*	*	*	*	*	*	*	*	*	*	*	*	*	*
.	.	.	.	.	16ee\JJ	.	.	.	.	.	.	.	.	.	.	.
!LO:LB:g=original	!	!	!	!	!	!	!	!	!	!	!	!	!	!	!	!
=68	=68	=68	=68	=68	=68	=68	=68	=68	=68	=68	=68	=68	=68	=68	=68	=68
16A\LL	6 4	.	4a\	.	4dd\	.	4ff#\	.	.	.	1ryy	1ryy	1ryy	1ryy	4ff#\	.
16G\	.	.	.	.	.	.	.	.	.	.	.	.	.	.	.	.
16F#\	.	.	.	.	.	.	.	.	.	.	.	.	.	.	.	.
16G\JJ	.	.	.	.	.	.	.	.	.	.	.	.	.	.	.	.
!LO:TX:t=P:problem=mixed beam	!	!	!	!	!	!	!	!	!	!	!	!	!	!	!LO:TX:a:t=t.	!
8A\L	5 3	.	4a\	.	4cc#t\	.	4eeT\	.	.	.	.	.	.	.	4ee\	.
8AA/J	.	.	.	.	.	.	.	.	.	.	.	.	.	.	.	.
!	!	!	!LO:LB:g=original	!	!LO:LB:g=original	!	!	!	!	!	!	!	!	!	!	!
=-	=-	=-	=-	=-	=-	=-	=-	=-	=-	=-	=-	=-	=-	=-	=-	=-
4D\	.	.	4a\	.	4dd\	.	4d/ 4a 4ff#	.	.	.	.	.	.	.	4dd\	.
8r	.	.	8r	.	8.ff#\L	.	8.aa\L	.	.	.	.	.	.	.	4r	.
8A\	7	.	8cc#\	.	.	.	.	.	.	.	.	.	.	.	.	.
.	.	.	.	.	16ee\Jk	.	16gg\Jk	.	.	.	.	.	.	.	.	.
=69	=69	=69	=69	=69	=69	=69	=69	=69	=69	=69	=69	=69	=69	=69	=69	=69
!	!	!	!	!	!	!	!	!	!	!	!	!	!	!	!LO:TX:a:t=1.	!
4d\	.	.	4a\	.	4dd\	.	4d/ 4a 4ff#	.	.	.	1ryy	1ryy	1ryy	1ryy	1r	.
8r	.	.	8r	.	8.ff#\L	.	8.aa\L	.	.	.	.	.	.	.	.	.
8G\	6	.	8b\	.	.	.	.	.	.	.	.	.	.	.	.	.
.	.	.	.	.	16ee\Jk	.	16gg\Jk	.	.	.	.	.	.	.	.	.
!LO:TX:t=P:problem=mixed beam	!	!	!LO:TX:t=P:problem=mixed beam	!	!	!	!	!	!	!	!	!	!	!	!	!
.	.	.	.	.	.	.	8qqgg/	.	.	.	.	.	.	.	.	.
8A\L	6 4	.	8a\L	.	4dd\	.	8ff#\L	.	.	.	.	.	.	.	.	.
8A\	.	.	8a\	.	.	.	16ee\L	.	.	.	.	.	.	.	.	.
.	.	.	.	.	.	.	16dd\JJ	.	.	.	.	.	.	.	.	.
.	.	.	.	.	.	.	8qqff#/	.	.	.	.	.	.	.	.	.
8AA/	7 3	.	8A/	.	4cc#t\	.	8ee\L	.	.	.	.	.	.	.	.	.
8AA/J	.	.	8A/J	.	.	.	16dd\L	.	.	.	.	.	.	.	.	.
.	.	.	.	.	.	.	16cc#\JJ	.	.	.	.	.	.	.	.	.
=70	=70	=70	=70	=70	=70	=70	=70	=70	=70	=70	=70	=70	=70	=70	=70	=70
!	!	!LO:DY:b:t=pia&colon;	!	!LO:DY:b:t=pia	!	!LO:DY:b:t=pia	!	!LO:DY:b:t=po	!	!	!	!	!	!	!	!
4D\	.	p	4a\	p	4dd\	p	4ff#\	p	.	.	1ryy	1ryy	1ryy	1ryy	4ff#\	.
!	!	!	!	!	!	!	!	!	!	!	!	!	!	!	!LO:TX:a:t=t.	!
8r	.	.	8r	.	8r	.	8r	.	.	.	.	.	.	.	8.aa\L	.
8A\	7	.	8a\	.	8cc#\	.	8ee\	.	.	.	.	.	.	.	.	.
.	.	.	.	.	.	.	.	.	.	.	.	.	.	.	16gg\Jk	.
4d\	.	.	4a\	.	4dd\	.	4ff#\	.	.	.	.	.	.	.	4ff#\	.
!	!	!	!	!	!	!	!	!	!	!	!	!	!	!	!LO:TX:a:t=t.	!
8r	.	.	8r	.	8r	.	8r	.	.	.	.	.	.	.	8.aa\L	.
!	!	!LO:DY:b:t=for&colon;	!	!	!	!LO:DY:b:t=for	!	!LO:DY:b:t-for	!	!	!	!	!	!	!	!
8G\	6	f	8b\	.	8ee\	f	8gg\	f	.	.	.	.	.	.	.	.
.	.	.	.	.	.	.	.	.	.	.	.	.	.	.	16gg\Jk	.
!	!	!	!	!	!	!	!LO:LB:g=original	!	!	!	!	!	!	!	!	!
=71	=71	=71	=71	=71	=71	=71	=71	=71	=71	=71	=71	=71	=71	=71	=71	=71
!LO:TX:t=P:problem=mixed beam	!	!	!	!	!	!	!	!	!	!	!	!	!	!	!	!
.	.	.	.	.	.	.	8qqgg/	.	.	.	.	.	.	.	8qqgg/	.
!	!	!	!	!LO:DY:b:t=for	!	!	!	!	!	!	!	!	!	!	!	!
8A\L	6 4	.	8a\L	f	8dd\L	.	8ff#\L	.	1r	.	1ryy	1ryy	1ryy	1ryy	8ff#\L	.
8A\	.	.	8a\	.	8dd\J	.	16ee\L	.	.	.	.	.	.	.	16ee\L	.
.	.	.	.	.	.	.	16dd\JJ	.	.	.	.	.	.	.	16dd\JJ	.
!	!	!	!	!	!	!	!	!	!	!	!	!	!	!	!LO:TX:a:t=t.	!
.	.	.	.	.	.	.	8qqff#/	.	.	.	.	.	.	.	8qqff#/	.
8AA/	7 3	.	8g\	.	4cc#t\	.	8ee\L	.	.	.	.	.	.	.	4ee\	.
8AA/J	.	.	8g\J	.	.	.	16dd\L	.	.	.	.	.	.	.	.	.
.	.	.	.	.	.	.	16cc#\JJ	.	.	.	.	.	.	.	.	.
4D/	.	.	4f#\	.	8dd|>\L	.	8dd|>\L	.	.	.	.	.	.	.	8dd|>\L	.
.	.	.	.	.	8a|>\J	.	8a|>\J	.	.	.	.	.	.	.	8a|>\J	.
!	!	!	!	!	!	!	!LO:TX:b:i:t=Volti Subito.	!	!	!	!	!	!	!	!	!
4r	.	.	4r	.	4d/	.	4d/ 4a 4ff#	.	.	.	.	.	.	.	4d/	.
==	==	==	==	==	==	==	==	==	==;	==	==	==	==	==	==	==
*-	*-	*-	*-	*-	*-	*-	*-	*-	*-	*-	*-	*-	*-	*-	*-	*-
!!!system-decoration: [(s1,s2)][(s3,s4,s5,s6)][(s7,s8,s9)]s10
!!!RDF**kern: < = below
!!!RDF**kern: > = above
!!!RDF**kern: | = vertical stroke
!!!ENC: Filip Voros
!!!END: 2022-03-28
!!!ENC: Marta Chmielewska
!!!END: 2022-03-30
